!!!!SEGMENT: pl-wtm--r-704-m--014_moniuszko-stanislaw--widma-no-8.krn
!!!cenid: 18xx:3069
!!!COM: Moniuszko, Stanisław
!!!COM-rismID: pe30008351
!!!CDT: 1819/05/05-1872/06/04
!!!CNT: Polish
!!!OPR: Widma
!!!OTL: No. 8
!!!OMV: 014
!!!PDT: 1852
!!!AGN: Secular
!!!SMS-siglum: PL-Wtm
!!!SMS-shelfmark: R 704/M
!!!SMS-shelfwork: 001-014 M
!!!SMS-variant:
!!!SMS-altvar:
!!!NIFC-rismSourceID: 1001093778
!!!NIFC-rismChildID: 1001093778
!!!NIFC-islandoraID:
!!!URL-pdf-islandora:
!!!URL-scan:
!!!IIIF:
!!!ONB-nifc: UWAGA: skany 0048-0052. Nie wpisywać tekstu rosyjskiego i samodzielnych dialogów poza krótkimi didaskaliami.
!!!OMD: Moderato, non troppo lento.
!!!AIN: 2 bass 6 empty 2 soprn 2 tenor
!!!key:
**kern	**kern	**dynam	**kern	**text	**dynam	**kern	**text	**text	**dynam	**kern	**text	**dynam	**kern	**text	**text	**dynam	**kern	**text	**dynam	**kern	**text	**text	**dynam	**kern	**text	**text	**dynam	**kern	**text	**text	**dynam	**kern	**text	**text	**dynam	**kern	**text	**text	**dynam
*	*	*	*	*	*	*	*	*color:red	*	*	*	*	*	*color:red	*	*	*	*	*	*	*color:red	*	*	*	*color:red	*	*	*	*color:red	*	*	*	*color:red	*	*	*	*	*color:red	*
*group4	*group4	*	*group3	*	*	*group3	*	*	*	*group3	*	*	*group3	*	*	*	*group2	*	*	*group2	*	*	*	*group2	*	*	*	*group2	*	*	*	*group1	*	*	*	*group1	*	*	*
*part12	*part11	*part11	*part10	*part10	*part10	*part9	*part9	*part9	*part9	*part8	*part8	*part8	*part7	*part7	*part7	*part7	*part6	*part6	*part6	*part5	*part5	*part5	*part5	*part4	*part4	*part4	*part4	*part3	*part3	*part3	*part3	*part2	*part2	*part2	*part2	*part1	*part1	*part1	*part1
*staff12	*staff11	*	*staff10	*staff10	*	*staff9	*staff9	*staff9	*	*staff8	*staff8	*	*staff7	*staff7	*staff7	*	*staff6	*staff6	*	*staff5	*staff5	*staff5	*	*staff4	*staff4	*staff4	*	*staff3	*staff3	*staff3	*	*staff2	*staff2	*staff2	*	*staff1	*staff1	*staff1	*
*	*	*	*I""Chór 2gi.	*	*	*	*	*	*	*	*	*	*	*	*	*	*	*	*	*	*	*	*	*	*	*	*	*I""Chór 1szy.	*	*	*	*	*	*	*	*	*	*	*
*Iempty	*Iempty	*	*Ibass	*	*	*Itenor	*	*	*	*Iempty	*	*	*Isoprn	*	*	*	*Ibass	*	*	*Itenor	*	*	*	*Iempty	*	*	*	*Isoprn	*	*	*	*Iempty	*	*	*	*Iempty	*	*	*
*I"F: P:	*I"F: P:	*	*I"[Basso 1]	*	*	*I"[Tenore 2]	*	*	*	*I"Alty	*	*	*I"[Soprano 1]	*	*	*	*I"[Basso 2]	*	*	*I"[Tenore 1]	*	*	*	*I"[Soprano 2]	*	*	*	*I"[Soprano 1]	*	*	*	*I"Starzec.	*	*	*	*I"Guślarz.	*	*	*
*	*	*	*I'B 1o	*	*	*I'T 2do	*	*	*	*	*	*	*I'S 1o	*	*	*	*I'B 2do	*	*	*I'T 1o	*	*	*	*I'S 2do	*	*	*	*I'S 1o	*	*	*	*	*	*	*	*	*	*	*
*clefF4	*clefG2	*	*clefF4	*	*	*clefGv2	*	*	*	*clefG2	*	*	*clefG2	*	*	*	*clefF4	*	*	*clefGv2	*	*	*	*clefG2	*	*	*	*clefG2	*	*	*	*clefF4	*	*	*	*clefF4	*	*	*
*k[]	*k[]	*	*k[]	*	*	*k[]	*	*	*	*k[]	*	*	*k[]	*	*	*	*k[]	*	*	*k[]	*	*	*	*k[]	*	*	*	*k[]	*	*	*	*k[]	*	*	*	*k[]	*	*	*
*C:	*C:	*	*C:	*	*	*C:	*	*	*	*C:	*	*	*C:	*	*	*	*C:	*	*	*C:	*	*	*	*C:	*	*	*	*C:	*	*	*	*C:	*	*	*	*C:	*	*	*
*M4/4	*M4/4	*	*M4/4	*	*	*M4/4	*	*	*	*M4/4	*	*	*M4/4	*	*	*	*M4/4	*	*	*M4/4	*	*	*	*M4/4	*	*	*	*M4/4	*	*	*	*M4/4	*	*	*	*M4/4	*	*	*
*met(c)	*met(c)	*	*met(c)	*	*	*met(c)	*	*	*	*met(c)	*	*	*met(c)	*	*	*	*met(c)	*	*	*met(c)	*	*	*	*met(c)	*	*	*	*met(c)	*	*	*	*met(c)	*	*	*	*met(c)	*	*	*
!	!	!LO:DY:rj:t=p.	!	!	!	!	!	!	!	!	!	!	!	!	!	!	!	!	!	!	!	!	!	!	!	!	!	!	!	!	!	!	!	!	!	!LO:TX:t=P:problem=w transkrypcji nie uwzględniono tekstu rosyjskiego oraz ołówkowych dopisków nutowych do tego tekstu	!	!	!
(>8.c\L	4r	p	4ryy	.	.	4ryy	.	.	.	4ryy	.	.	4ryy	.	.	.	4ryy	.	.	4ryy	.	.	.	4ryy	.	.	.	4ryy	.	.	.	4ryy	.	.	.	4r	.	.	.
16B\Jk	.	.	.	.	.	.	.	.	.	.	.	.	.	.	.	.	.	.	.	.	.	.	.	.	.	.	.	.	.	.	.	.	.	.	.	.	.	.	.
=1	=1	=1	=1	=1	=1	=1	=1	=1	=1	=1	=1	=1	=1	=1	=1	=1	=1	=1	=1	=1	=1	=1	=1	=1	=1	=1	=1	=1	=1	=1	=1	=1	=1	=1	=1	=1	=1	=1	=1
*2\right	*	*	*	*	*	*	*	*	*	*	*	*	*	*	*	*	*	*	*	*	*	*	*	*	*	*	*	*	*	*	*	*	*	*	*	*	*	*	*
2A\	2r	.	1ryy	.	.	1ryy	.	.	.	1ryy	.	.	1ryy	.	.	.	1ryy	.	.	1ryy	.	.	.	1ryy	.	.	.	1ryy	.	.	.	1ryy	.	.	.	1r	.	.	.
4E\	4r	.	.	.	.	.	.	.	.	.	.	.	.	.	.	.	.	.	.	.	.	.	.	.	.	.	.	.	.	.	.	.	.	.	.	.	.	.	.
4C/	(<8.e/L	.	.	.	.	.	.	.	.	.	.	.	.	.	.	.	.	.	.	.	.	.	.	.	.	.	.	.	.	.	.	.	.	.	.	.	.	.	.
.	16d/Jk	.	.	.	.	.	.	.	.	.	.	.	.	.	.	.	.	.	.	.	.	.	.	.	.	.	.	.	.	.	.	.	.	.	.	.	.	.	.
=2	=2	=2	=2	=2	=2	=2	=2	=2	=2	=2	=2	=2	=2	=2	=2	=2	=2	=2	=2	=2	=2	=2	=2	=2	=2	=2	=2	=2	=2	=2	=2	=2	=2	=2	=2	=2	=2	=2	=2
*^	*^	*	*	*	*	*	*	*	*	*	*	*	*	*	*	*	*	*	*	*	*	*	*	*	*	*	*	*	*	*	*	*	*	*	*	*	*	*	*
4r	[<1AA)	2r	[<1c)	.	1ryy	.	.	1ryy	.	.	.	1ryy	.	.	1ryy	.	.	.	1ryy	.	.	1ryy	.	.	.	1ryy	.	.	.	1ryy	.	.	.	1ryy	.	.	.	1r	.	.	.
(<8.A/L	.	.	.	.	.	.	.	.	.	.	.	.	.	.	.	.	.	.	.	.	.	.	.	.	.	.	.	.	.	.	.	.	.	.	.	.	.	.	.	.	.
16G/Jk	.	.	.	.	.	.	.	.	.	.	.	.	.	.	.	.	.	.	.	.	.	.	.	.	.	.	.	.	.	.	.	.	.	.	.	.	.	.	.	.	.
4F/	.	4r	.	.	.	.	.	.	.	.	.	.	.	.	.	.	.	.	.	.	.	.	.	.	.	.	.	.	.	.	.	.	.	.	.	.	.	.	.	.	.
4E/	.	8.a/L	.	.	.	.	.	.	.	.	.	.	.	.	.	.	.	.	.	.	.	.	.	.	.	.	.	.	.	.	.	.	.	.	.	.	.	.	.	.	.
.	.	16g/Jk	.	.	.	.	.	.	.	.	.	.	.	.	.	.	.	.	.	.	.	.	.	.	.	.	.	.	.	.	.	.	.	.	.	.	.	.	.	.	.
=3	=3	=3	=3	=3	=3	=3	=3	=3	=3	=3	=3	=3	=3	=3	=3	=3	=3	=3	=3	=3	=3	=3	=3	=3	=3	=3	=3	=3	=3	=3	=3	=3	=3	=3	=3	=3	=3	=3	=3	=3	=3
*	*	*	*^	*	*	*	*	*	*	*	*	*	*	*	*	*	*	*	*	*	*	*	*	*	*	*	*	*	*	*	*	*	*	*	*	*	*	*	*	*	*
(2.D#X/)	1AA_<	2.f#X/	1c_<	4rdd	.	1ryy	.	.	1ryy	.	.	.	1ryy	.	.	1ryy	.	.	.	1ryy	.	.	1ryy	.	.	.	1ryy	.	.	.	1ryy	.	.	.	1ryy	.	.	.	1r	.	.	.
.	.	.	.	8.a/L	.	.	.	.	.	.	.	.	.	.	.	.	.	.	.	.	.	.	.	.	.	.	.	.	.	.	.	.	.	.	.	.	.	.	.	.	.	.
.	.	.	.	16b/Jk	.	.	.	.	.	.	.	.	.	.	.	.	.	.	.	.	.	.	.	.	.	.	.	.	.	.	.	.	.	.	.	.	.	.	.	.	.	.
.	.	.	.	[>2cc/	.	.	.	.	.	.	.	.	.	.	.	.	.	.	.	.	.	.	.	.	.	.	.	.	.	.	.	.	.	.	.	.	.	.	.	.	.	.
8.E/L	.	8.g/L	.	.	.	.	.	.	.	.	.	.	.	.	.	.	.	.	.	.	.	.	.	.	.	.	.	.	.	.	.	.	.	.	.	.	.	.	.	.	.	.
16F#X/Jk)	.	16a/Jk	.	.	.	.	.	.	.	.	.	.	.	.	.	.	.	.	.	.	.	.	.	.	.	.	.	.	.	.	.	.	.	.	.	.	.	.	.	.	.	.
*	*	*	*v	*v	*	*	*	*	*	*	*	*	*	*	*	*	*	*	*	*	*	*	*	*	*	*	*	*	*	*	*	*	*	*	*	*	*	*	*	*	*	*
=4	=4	=4	=4	=4	=4	=4	=4	=4	=4	=4	=4	=4	=4	=4	=4	=4	=4	=4	=4	=4	=4	=4	=4	=4	=4	=4	=4	=4	=4	=4	=4	=4	=4	=4	=4	=4	=4	=4	=4	=4	=4
2.F#X/	(>4.AA\]	(>1a 1cc]	4c\]	.	1ryy	.	.	1ryy	.	.	.	1ryy	.	.	1ryy	.	.	.	1ryy	.	.	1ryy	.	.	.	1ryy	.	.	.	1ryy	.	.	.	1ryy	.	.	.	1r	.	.	.
.	.	.	8.d\L	.	.	.	.	.	.	.	.	.	.	.	.	.	.	.	.	.	.	.	.	.	.	.	.	.	.	.	.	.	.	.	.	.	.	.	.	.	.
.	8GG\	.	.	.	.	.	.	.	.	.	.	.	.	.	.	.	.	.	.	.	.	.	.	.	.	.	.	.	.	.	.	.	.	.	.	.	.	.	.	.	.
.	.	.	16d#X\Jk	.	.	.	.	.	.	.	.	.	.	.	.	.	.	.	.	.	.	.	.	.	.	.	.	.	.	.	.	.	.	.	.	.	.	.	.	.	.
.	4FF#X\	.	4d#\	.	.	.	.	.	.	.	.	.	.	.	.	.	.	.	.	.	.	.	.	.	.	.	.	.	.	.	.	.	.	.	.	.	.	.	.	.	.
4G/	8.EE\L	.	4e\	.	.	.	.	.	.	.	.	.	.	.	.	.	.	.	.	.	.	.	.	.	.	.	.	.	.	.	.	.	.	.	.	.	.	.	.	.	.
.	16DD#X\Jk)	.	.	.	.	.	.	.	.	.	.	.	.	.	.	.	.	.	.	.	.	.	.	.	.	.	.	.	.	.	.	.	.	.	.	.	.	.	.	.	.
*v	*v	*	*	*	*	*	*	*	*	*	*	*	*	*	*	*	*	*	*	*	*	*	*	*	*	*	*	*	*	*	*	*	*	*	*	*	*	*	*	*	*
!!LO:LB:g=original
=5	=5	=5	=5	=5	=5	=5	=5	=5	=5	=5	=5	=5	=5	=5	=5	=5	=5	=5	=5	=5	=5	=5	=5	=5	=5	=5	=5	=5	=5	=5	=5	=5	=5	=5	=5	=5	=5	=5	=5	=5
*	*	*2\right	*	*	*	*	*	*	*	*	*	*	*	*	*	*	*	*	*	*	*	*	*	*	*	*	*	*	*	*	*	*	*	*	*	*	*	*	*	*
(<2DD#X/ 2A	(>4cc/)	2f#X\	.	1ryy	.	.	1ryy	.	.	.	1ryy	.	.	1ryy	.	.	.	1ryy	.	.	1ryy	.	.	.	1ryy	.	.	.	1ryy	.	.	.	1ryy	.	.	.	1r	.	.	.
.	8b/L	.	.	.	.	.	.	.	.	.	.	.	.	.	.	.	.	.	.	.	.	.	.	.	.	.	.	.	.	.	.	.	.	.	.	.	.	.	.	.
.	8a/J	.	.	.	.	.	.	.	.	.	.	.	.	.	.	.	.	.	.	.	.	.	.	.	.	.	.	.	.	.	.	.	.	.	.	.	.	.	.	.
2DDn/ [>2B	8g#X/L	2fn\	.	.	.	.	.	.	.	.	.	.	.	.	.	.	.	.	.	.	.	.	.	.	.	.	.	.	.	.	.	.	.	.	.	.	.	.	.	.
.	8a/	.	.	.	.	.	.	.	.	.	.	.	.	.	.	.	.	.	.	.	.	.	.	.	.	.	.	.	.	.	.	.	.	.	.	.	.	.	.	.
.	8b/	.	.	.	.	.	.	.	.	.	.	.	.	.	.	.	.	.	.	.	.	.	.	.	.	.	.	.	.	.	.	.	.	.	.	.	.	.	.	.
.	8g#/J	.	.	.	.	.	.	.	.	.	.	.	.	.	.	.	.	.	.	.	.	.	.	.	.	.	.	.	.	.	.	.	.	.	.	.	.	.	.	.
*	*v	*v	*	*	*	*	*	*	*	*	*	*	*	*	*	*	*	*	*	*	*	*	*	*	*	*	*	*	*	*	*	*	*	*	*	*	*	*	*	*
=6	=6	=6	=6	=6	=6	=6	=6	=6	=6	=6	=6	=6	=6	=6	=6	=6	=6	=6	=6	=6	=6	=6	=6	=6	=6	=6	=6	=6	=6	=6	=6	=6	=6	=6	=6	=6	=6	=6	=6
*^	*	*	*	*	*	*	*	*	*	*	*	*	*	*	*	*	*	*	*	*	*	*	*	*	*	*	*	*	*	*	*	*	*	*	*	*	*	*	*
4B/]	4.CC\ 4.C	2.e/	.	1ryy	.	.	1ryy	.	.	.	1ryy	.	.	1ryy	.	.	.	1ryy	.	.	1ryy	.	.	.	1ryy	.	.	.	1ryy	.	.	.	1ryy	.	.	.	1r	.	.	.
8A/L	.	.	.	.	.	.	.	.	.	.	.	.	.	.	.	.	.	.	.	.	.	.	.	.	.	.	.	.	.	.	.	.	.	.	.	.	.	.	.	.
8G/J	8BBB\ 8BB	.	.	.	.	.	.	.	.	.	.	.	.	.	.	.	.	.	.	.	.	.	.	.	.	.	.	.	.	.	.	.	.	.	.	.	.	.	.	.
[>2F/	4AAA\ 4AA	.	.	.	.	.	.	.	.	.	.	.	.	.	.	.	.	.	.	.	.	.	.	.	.	.	.	.	.	.	.	.	.	.	.	.	.	.	.	.
.	4GGG#X\ 4BB	8.d/L	.	.	.	.	.	.	.	.	.	.	.	.	.	.	.	.	.	.	.	.	.	.	.	.	.	.	.	.	.	.	.	.	.	.	.	.	.	.
.	.	16c/Jk)	.	.	.	.	.	.	.	.	.	.	.	.	.	.	.	.	.	.	.	.	.	.	.	.	.	.	.	.	.	.	.	.	.	.	.	.	.	.
=7	=7	=7	=7	=7	=7	=7	=7	=7	=7	=7	=7	=7	=7	=7	=7	=7	=7	=7	=7	=7	=7	=7	=7	=7	=7	=7	=7	=7	=7	=7	=7	=7	=7	=7	=7	=7	=7	=7	=7	=7
*	*	*	*	*	*	*	*	*	*	*	*	*	*	*	*	*	*	*	*	*	*	*	*	*	*	*	*	*	*	*	*	*	*	*	*	*	*2\right	*	*	*
!	!	!	!LO:HP:b=2	!	!	!	!	!	!	!	!	!	!	!	!	!	!	!	!	!	!	!	!	!	!	!	!	!	!	!	!	!	!	!	!	!	!	!	!	!
4.F/]	4AAA\) 4AA	2c/	<	1ryy	.	.	1ryy	.	.	.	1ryy	.	.	1ryy	.	.	.	1ryy	.	.	1ryy	.	.	.	1ryy	.	.	.	1ryy	.	.	.	1ryy	.	.	.	[>2.c\	Te-	O-	.
.	(>8DD\L	.	.	.	.	.	.	.	.	.	.	.	.	.	.	.	.	.	.	.	.	.	.	.	.	.	.	.	.	.	.	.	.	.	.	.	.	.	.	.
8E/	8EE\J	.	.	.	.	.	.	.	.	.	.	.	.	.	.	.	.	.	.	.	.	.	.	.	.	.	.	.	.	.	.	.	.	.	.	.	.	.	.	.
!	!	!	!LO:HP:b=2	!	!	!	!	!	!	!	!	!	!	!	!	!	!	!	!	!	!	!	!	!	!	!	!	!	!	!	!	!	!	!	!	!	!	!	!	!
4D/	4FF\	[>2A/	[ > ]]	.	.	.	.	.	.	.	.	.	.	.	.	.	.	.	.	.	.	.	.	.	.	.	.	.	.	.	.	.	.	.	.	.	.	.	.	.
8G/L	8EE\L	.	.	.	.	.	.	.	.	.	.	.	.	.	.	.	.	.	.	.	.	.	.	.	.	.	.	.	.	.	.	.	.	.	.	.	8c\]	.	-ra	.
8F/J	8DD\J)	.	.	.	.	.	.	.	.	.	.	.	.	.	.	.	.	.	.	.	.	.	.	.	.	.	.	.	.	.	.	.	.	.	.	.	8B\	-raz	a	.
*v	*v	*	*	*	*	*	*	*	*	*	*	*	*	*	*	*	*	*	*	*	*	*	*	*	*	*	*	*	*	*	*	*	*	*	*	*	*	*	*	*
=8	=8	=8	=8	=8	=8	=8	=8	=8	=8	=8	=8	=8	=8	=8	=8	=8	=8	=8	=8	=8	=8	=8	=8	=8	=8	=8	=8	=8	=8	=8	=8	=8	=8	=8	=8	=8	=8	=8	=8
2AAA\ 2E	1A] 1c 1e (>1a	.	1ryy	.	.	1ryy	.	.	.	1ryy	.	.	1ryy	.	.	.	1ryy	.	.	1ryy	.	.	.	1ryy	.	.	.	1ryy	.	.	.	1ryy	.	.	.	4A\	wy	voi	.
.	.	.	.	.	.	.	.	.	.	.	.	.	.	.	.	.	.	.	.	.	.	.	.	.	.	.	.	.	.	.	.	.	.	.	.	4A\	po-	bell'	.
2r	.	.	.	.	.	.	.	.	.	.	.	.	.	.	.	.	.	.	.	.	.	.	.	.	.	.	.	.	.	.	.	.	.	.	.	4E\	-śred-	al-	.
.	.	.	.	.	.	.	.	.	.	.	.	.	.	.	.	.	.	.	.	.	.	.	.	.	.	.	.	.	.	.	.	.	.	.	.	4A\	-nie	-me i-	.
!!LO:PB:g=original
=9	=9	=9	=9	=9	=9	=9	=9	=9	=9	=9	=9	=9	=9	=9	=9	=9	=9	=9	=9	=9	=9	=9	=9	=9	=9	=9	=9	=9	=9	=9	=9	=9	=9	=9	=9	=9	=9	=9	=9
*^	*^	*	*	*	*	*	*	*	*	*	*	*	*	*	*	*	*	*	*	*	*	*	*	*	*	*	*	*	*	*	*	*	*	*	*	*	*	*	*
2d/	1A	4a/)	2f\	.	1ryy	.	.	1ryy	.	.	.	1ryy	.	.	1ryy	.	.	.	1ryy	.	.	1ryy	.	.	.	1ryy	.	.	.	1ryy	.	.	.	1ryy	.	.	.	2B\	du-	-gra-	.
.	.	4g#X/	.	.	.	.	.	.	.	.	.	.	.	.	.	.	.	.	.	.	.	.	.	.	.	.	.	.	.	.	.	.	.	.	.	.	.	.	.	.	.
2c/	.	2a/	2e\	.	.	.	.	.	.	.	.	.	.	.	.	.	.	.	.	.	.	.	.	.	.	.	.	.	.	.	.	.	.	.	.	.	.	8A\	-chy	-ne,	.
.	.	.	.	.	.	.	.	.	.	.	.	.	.	.	.	.	.	.	.	.	.	.	.	.	.	.	.	.	.	.	.	.	.	.	.	.	.	8r	.	.	.
.	.	.	.	.	.	.	.	.	.	.	.	.	.	.	.	.	.	.	.	.	.	.	.	.	.	.	.	.	.	.	.	.	.	.	.	.	.	8c\	coś-	che	.
.	.	.	.	.	.	.	.	.	.	.	.	.	.	.	.	.	.	.	.	.	.	.	.	.	.	.	.	.	.	.	.	.	.	.	.	.	.	8B\	-cie	pas-	.
*v	*v	*	*	*	*	*	*	*	*	*	*	*	*	*	*	*	*	*	*	*	*	*	*	*	*	*	*	*	*	*	*	*	*	*	*	*	*	*	*	*	*
*	*v	*v	*	*	*	*	*	*	*	*	*	*	*	*	*	*	*	*	*	*	*	*	*	*	*	*	*	*	*	*	*	*	*	*	*	*	*	*	*	*
=10	=10	=10	=10	=10	=10	=10	=10	=10	=10	=10	=10	=10	=10	=10	=10	=10	=10	=10	=10	=10	=10	=10	=10	=10	=10	=10	=10	=10	=10	=10	=10	=10	=10	=10	=10	=10	=10	=10	=10
1A 1e	1a 1cc	.	1ryy	.	.	1ryy	.	.	.	1ryy	.	.	1ryy	.	.	.	1ryy	.	.	1ryy	.	.	.	1ryy	.	.	.	1ryy	.	.	.	1ryy	.	.	.	4A\	u	-sas-	.
.	.	.	.	.	.	.	.	.	.	.	.	.	.	.	.	.	.	.	.	.	.	.	.	.	.	.	.	.	.	.	.	.	.	.	.	4A\	te-	-te in	.
.	.	.	.	.	.	.	.	.	.	.	.	.	.	.	.	.	.	.	.	.	.	.	.	.	.	.	.	.	.	.	.	.	.	.	.	4G#X\	-go	mez-	.
.	.	.	.	.	.	.	.	.	.	.	.	.	.	.	.	.	.	.	.	.	.	.	.	.	.	.	.	.	.	.	.	.	.	.	.	4A\	pa-	-zo ai	.
=11	=11	=11	=11	=11	=11	=11	=11	=11	=11	=11	=11	=11	=11	=11	=11	=11	=11	=11	=11	=11	=11	=11	=11	=11	=11	=11	=11	=11	=11	=11	=11	=11	=11	=11	=11	=11	=11	=11	=11
*^	*^	*	*	*	*	*	*	*	*	*	*	*	*	*	*	*	*	*	*	*	*	*	*	*	*	*	*	*	*	*	*	*	*	*	*	*^	*	*	*
!	!	!	!	!	!	!	!	!	!	!	!	!	!	!	!	!	!	!	!	!	!	!	!	!	!	!	!	!	!	!	!	!	!	!	!	!	!	!LO:S:color=gray	!	!	!	!
2f/	4A\	2dd\	4a\	.	1ryy	.	.	1ryy	.	.	.	1ryy	.	.	1ryy	.	.	.	1ryy	.	.	1ryy	.	.	.	1ryy	.	.	.	1ryy	.	.	.	1ryy	.	.	.	(>2B\	2.ryy	-do-	vi-	.
.	4G#X\	.	4b\	.	.	.	.	.	.	.	.	.	.	.	.	.	.	.	.	.	.	.	.	.	.	.	.	.	.	.	.	.	.	.	.	.	.	.	.	.	.	.
4e/	4A\	2cc/	2a\	.	.	.	.	.	.	.	.	.	.	.	.	.	.	.	.	.	.	.	.	.	.	.	.	.	.	.	.	.	.	.	.	.	.	8A\)	.	-łu,	-vi,	.
.	.	.	.	.	.	.	.	.	.	.	.	.	.	.	.	.	.	.	.	.	.	.	.	.	.	.	.	.	.	.	.	.	.	.	.	.	.	8r	.	.	.	.
4f\	4F\	.	.	.	.	.	.	.	.	.	.	.	.	.	.	.	.	.	.	.	.	.	.	.	.	.	.	.	.	.	.	.	.	.	.	.	.	8A/@	8A\L	ciem-	co-	.
.	.	.	.	.	.	.	.	.	.	.	.	.	.	.	.	.	.	.	.	.	.	.	.	.	.	.	.	.	.	.	.	.	.	.	.	.	.	8B/@	8B\J	.	-me	.
*	*	*	*	*	*	*	*	*	*	*	*	*	*	*	*	*	*	*	*	*	*	*	*	*	*	*	*	*	*	*	*	*	*	*	*	*	*	*v	*v	*	*	*
=12	=12	=12	=12	=12	=12	=12	=12	=12	=12	=12	=12	=12	=12	=12	=12	=12	=12	=12	=12	=12	=12	=12	=12	=12	=12	=12	=12	=12	=12	=12	=12	=12	=12	=12	=12	=12	=12	=12	=12	=12	=12
4e/	2.C\	(<2g/ (>2cc	2.ryy	.	1ryy	.	.	1ryy	.	.	.	1ryy	.	.	1ryy	.	.	.	1ryy	.	.	1ryy	.	.	.	1ryy	.	.	.	1ryy	.	.	.	1ryy	.	.	.	2c\	-no-	scor-	.
8.G/L	.	.	.	.	.	.	.	.	.	.	.	.	.	.	.	.	.	.	.	.	.	.	.	.	.	.	.	.	.	.	.	.	.	.	.	.	.	.	.	.	.
16G/Jk	.	.	.	.	.	.	.	.	.	.	.	.	.	.	.	.	.	.	.	.	.	.	.	.	.	.	.	.	.	.	.	.	.	.	.	.	.	.	.	.	.
4c/	.	4e/) 4g)	.	.	.	.	.	.	.	.	.	.	.	.	.	.	.	.	.	.	.	.	.	.	.	.	.	.	.	.	.	.	.	.	.	.	.	8G\	-ty,	-ron	.
.	.	.	.	.	.	.	.	.	.	.	.	.	.	.	.	.	.	.	.	.	.	.	.	.	.	.	.	.	.	.	.	.	.	.	.	.	.	8r	.	.	.
(>4A/	4D\	8f/L	4d\	.	.	.	.	.	.	.	.	.	.	.	.	.	.	.	.	.	.	.	.	.	.	.	.	.	.	.	.	.	.	.	.	.	.	8F\	za-	frai	.
.	.	(<8g/J	.	.	.	.	.	.	.	.	.	.	.	.	.	.	.	.	.	.	.	.	.	.	.	.	.	.	.	.	.	.	.	.	.	.	.	8G\	-wie-	de	.
!!LO:LB:g=original
=13	=13	=13	=13	=13	=13	=13	=13	=13	=13	=13	=13	=13	=13	=13	=13	=13	=13	=13	=13	=13	=13	=13	=13	=13	=13	=13	=13	=13	=13	=13	=13	=13	=13	=13	=13	=13	=13	=13	=13	=13	=13
2A/)	1AA 1E	2a/)	4d\	.	1ryy	.	.	1ryy	.	.	.	1ryy	.	.	1ryy	.	.	.	1ryy	.	.	1ryy	.	.	.	1ryy	.	.	.	1ryy	.	.	.	1ryy	.	.	.	2A\	-ru-	chi-	.
.	.	.	8.c\L	.	.	.	.	.	.	.	.	.	.	.	.	.	.	.	.	.	.	.	.	.	.	.	.	.	.	.	.	.	.	.	.	.	.	.	.	.	.
.	.	.	16B\Jk	.	.	.	.	.	.	.	.	.	.	.	.	.	.	.	.	.	.	.	.	.	.	.	.	.	.	.	.	.	.	.	.	.	.	.	.	.	.
2ryy	.	2e/	[<2c\	.	.	.	.	.	.	.	.	.	.	.	.	.	.	.	.	.	.	.	.	.	.	.	.	.	.	.	.	.	.	.	.	.	.	4E\	-chy	-vi	.
.	.	.	.	.	.	.	.	.	.	.	.	.	.	.	.	.	.	.	.	.	.	.	.	.	.	.	.	.	.	.	.	.	.	.	.	.	.	8F\	ży-	di	.
.	.	.	.	.	.	.	.	.	.	.	.	.	.	.	.	.	.	.	.	.	.	.	.	.	.	.	.	.	.	.	.	.	.	.	.	.	.	8E\	-łyś-	-sor-	.
*v	*v	*	*	*	*	*	*	*	*	*	*	*	*	*	*	*	*	*	*	*	*	*	*	*	*	*	*	*	*	*	*	*	*	*	*	*	*	*	*	*	*
=14	=14	=14	=14	=14	=14	=14	=14	=14	=14	=14	=14	=14	=14	=14	=14	=14	=14	=14	=14	=14	=14	=14	=14	=14	=14	=14	=14	=14	=14	=14	=14	=14	=14	=14	=14	=14	=14	=14	=14	=14
2FF\ 2F	2d/	4c\]	.	1ryy	.	.	1ryy	.	.	.	1ryy	.	.	1ryy	.	.	.	1ryy	.	.	1ryy	.	.	.	1ryy	.	.	.	1ryy	.	.	.	1ryy	.	.	.	4D\	-cie	-gen-	.
.	.	8.B</L	.	.	.	.	.	.	.	.	.	.	.	.	.	.	.	.	.	.	.	.	.	.	.	.	.	.	.	.	.	.	.	.	.	.	4D\	z ludź-	-to	.
.	.	16A</Jk	.	.	.	.	.	.	.	.	.	.	.	.	.	.	.	.	.	.	.	.	.	.	.	.	.	.	.	.	.	.	.	.	.	.	.	.	.	.
4CC\ 4C	4e/	[>2A</	.	.	.	.	.	.	.	.	.	.	.	.	.	.	.	.	.	.	.	.	.	.	.	.	.	.	.	.	.	.	.	.	.	.	4E\	-mi	l'ae-	.
4DD\ 4D	4f/	.	.	.	.	.	.	.	.	.	.	.	.	.	.	.	.	.	.	.	.	.	.	.	.	.	.	.	.	.	.	.	.	.	.	.	4F\	po-	-que	.
=15	=15	=15	=15	=15	=15	=15	=15	=15	=15	=15	=15	=15	=15	=15	=15	=15	=15	=15	=15	=15	=15	=15	=15	=15	=15	=15	=15	=15	=15	=15	=15	=15	=15	=15	=15	=15	=15	=15	=15	=15
2EE\ 2E	(>2B/	4A</]	.	1ryy	.	.	1ryy	.	.	.	1ryy	.	.	1ryy	.	.	.	1ryy	.	.	1ryy	.	.	.	1ryy	.	.	.	1ryy	.	.	.	1ryy	.	.	.	4E\	-spo	-cha-	.
.	.	8.G#X</L	.	.	.	.	.	.	.	.	.	.	.	.	.	.	.	.	.	.	.	.	.	.	.	.	.	.	.	.	.	.	.	.	.	.	4E\	-łu,	-re.	.
.	.	16F#X</Jk	.	.	.	.	.	.	.	.	.	.	.	.	.	.	.	.	.	.	.	.	.	.	.	.	.	.	.	.	.	.	.	.	.	.	.	.	.	.
8EE\	8e/)	8E</	.	.	.	.	.	.	.	.	.	.	.	.	.	.	.	.	.	.	.	.	.	.	.	.	.	.	.	.	.	.	.	.	.	.	4r	.	.	.
8r	8r	8ryy	.	.	.	.	.	.	.	.	.	.	.	.	.	.	.	.	.	.	.	.	.	.	.	.	.	.	.	.	.	.	.	.	.	.	.	.	.	.
4r	4r	4ryy	.	.	.	.	.	.	.	.	.	.	.	.	.	.	.	.	.	.	.	.	.	.	.	.	.	.	.	.	.	.	.	.	.	.	8c#X\	lecz	Voi	.
.	.	.	.	.	.	.	.	.	.	.	.	.	.	.	.	.	.	.	.	.	.	.	.	.	.	.	.	.	.	.	.	.	.	.	.	.	8B\	od	che	.
*	*v	*v	*	*	*	*	*	*	*	*	*	*	*	*	*	*	*	*	*	*	*	*	*	*	*	*	*	*	*	*	*	*	*	*	*	*	*	*	*	*
=16	=16	=16	=16	=16	=16	=16	=16	=16	=16	=16	=16	=16	=16	=16	=16	=16	=16	=16	=16	=16	=16	=16	=16	=16	=16	=16	=16	=16	=16	=16	=16	=16	=16	=16	=16	=16	=16	=16	=16
[<1A 1c#X 1e	(>1a 1cc#X 1ee [>1aa	.	1ryy	.	.	1ryy	.	.	.	1ryy	.	.	1ryy	.	.	.	1ryy	.	.	1ryy	.	.	.	1ryy	.	.	.	1ryy	.	.	.	1ryy	.	.	.	4A\	ludz-	sca-	.
.	.	.	.	.	.	.	.	.	.	.	.	.	.	.	.	.	.	.	.	.	.	.	.	.	.	.	.	.	.	.	.	.	.	.	.	4A\	-kiej	-vre	.
.	.	.	.	.	.	.	.	.	.	.	.	.	.	.	.	.	.	.	.	.	.	.	.	.	.	.	.	.	.	.	.	.	.	.	.	4E\	wol-	dol	.
.	.	.	.	.	.	.	.	.	.	.	.	.	.	.	.	.	.	.	.	.	.	.	.	.	.	.	.	.	.	.	.	.	.	.	.	4A\	-ne	fal-	.
!!LO:LB:g=original
=17	=17	=17	=17	=17	=17	=17	=17	=17	=17	=17	=17	=17	=17	=17	=17	=17	=17	=17	=17	=17	=17	=17	=17	=17	=17	=17	=17	=17	=17	=17	=17	=17	=17	=17	=17	=17	=17	=17	=17
*^	*	*	*	*	*	*	*	*	*	*	*	*	*	*	*	*	*	*	*	*	*	*	*	*	*	*	*	*	*	*	*	*	*	*	*	*	*	*	*
4B/ 4d	2A\_	4dd\ 4ff#X 4aa]	.	1ryy	.	.	1ryy	.	.	.	1ryy	.	.	1ryy	.	.	.	1ryy	.	.	1ryy	.	.	.	1ryy	.	.	.	1ryy	.	.	.	1ryy	.	.	.	2B\	ska-	-li-	.
4B/ 4d 4e	.	4b\ 4ee 4gg#X	.	.	.	.	.	.	.	.	.	.	.	.	.	.	.	.	.	.	.	.	.	.	.	.	.	.	.	.	.	.	.	.	.	.	.	.	.	.
2c#X/ 2e	2A\]	2cc#X\) 2ee 2aa	.	.	.	.	.	.	.	.	.	.	.	.	.	.	.	.	.	.	.	.	.	.	.	.	.	.	.	.	.	.	.	.	.	.	8A\	-zy	-re	.
.	.	.	.	.	.	.	.	.	.	.	.	.	.	.	.	.	.	.	.	.	.	.	.	.	.	.	.	.	.	.	.	.	.	.	.	.	8r	.	.	.
.	.	.	.	.	.	.	.	.	.	.	.	.	.	.	.	.	.	.	.	.	.	.	.	.	.	.	.	.	.	.	.	.	.	.	.	.	8c#X\	ży-	al-	.
.	.	.	.	.	.	.	.	.	.	.	.	.	.	.	.	.	.	.	.	.	.	.	.	.	.	.	.	.	.	.	.	.	.	.	.	.	8B\	-łyś-	-le	.
*v	*v	*	*	*	*	*	*	*	*	*	*	*	*	*	*	*	*	*	*	*	*	*	*	*	*	*	*	*	*	*	*	*	*	*	*	*	*	*	*	*
=18	=18	=18	=18	=18	=18	=18	=18	=18	=18	=18	=18	=18	=18	=18	=18	=18	=18	=18	=18	=18	=18	=18	=18	=18	=18	=18	=18	=18	=18	=18	=18	=18	=18	=18	=18	=18	=18	=18	=18
1F#X 1A 1c#X 1f#X	1a 1cc#X 1ff#X 1aa	.	1ryy	.	.	1ryy	.	.	.	1ryy	.	.	1ryy	.	.	.	1ryy	.	.	1ryy	.	.	.	1ryy	.	.	.	1ryy	.	.	.	1ryy	.	.	.	4A\	-cie	gen-	.
.	.	.	.	.	.	.	.	.	.	.	.	.	.	.	.	.	.	.	.	.	.	.	.	.	.	.	.	.	.	.	.	.	.	.	.	8r	.	.	.
.	.	.	.	.	.	.	.	.	.	.	.	.	.	.	.	.	.	.	.	.	.	.	.	.	.	.	.	.	.	.	.	.	.	.	.	8A\	nie	-tiel-	.
.	.	.	.	.	.	.	.	.	.	.	.	.	.	.	.	.	.	.	.	.	.	.	.	.	.	.	.	.	.	.	.	.	.	.	.	4.G#X\	nam,	-mor-	.
.	.	.	.	.	.	.	.	.	.	.	.	.	.	.	.	.	.	.	.	.	.	.	.	.	.	.	.	.	.	.	.	.	.	.	.	8A\	nie	-do e	.
=19	=19	=19	=19	=19	=19	=19	=19	=19	=19	=19	=19	=19	=19	=19	=19	=19	=19	=19	=19	=19	=19	=19	=19	=19	=19	=19	=19	=19	=19	=19	=19	=19	=19	=19	=19	=19	=19	=19	=19
*^	*^	*	*	*	*	*	*	*	*	*	*	*	*	*	*	*	*	*	*	*	*	*	*	*	*	*	*	*	*	*	*	*	*	*	*	*	*	*	*
(>2B/	4D\ 4F#X	4ff#X/ 4aa	2b\	.	1ryy	.	.	1ryy	.	.	.	1ryy	.	.	1ryy	.	.	.	1ryy	.	.	1ryy	.	.	.	1ryy	.	.	.	1ryy	.	.	.	1ryy	.	.	.	2B\	świa-	sta-	.
.	4E\ 4G#X	4dd/ 4ee	.	.	.	.	.	.	.	.	.	.	.	.	.	.	.	.	.	.	.	.	.	.	.	.	.	.	.	.	.	.	.	.	.	.	.	.	.	.	.
8c#X/)	8A\	8cc#X/ 8ee	8a#X\	.	.	.	.	.	.	.	.	.	.	.	.	.	.	.	.	.	.	.	.	.	.	.	.	.	.	.	.	.	.	.	.	.	.	8A\	-tu,	-nie	.
8r	8ryy	8r	8ryy	.	.	.	.	.	.	.	.	.	.	.	.	.	.	.	.	.	.	.	.	.	.	.	.	.	.	.	.	.	.	.	.	.	.	8r	.	.	.
4Gn\ 4d	4ryy	4g/ 4b	4ryy	.	.	.	.	.	.	.	.	.	.	.	.	.	.	.	.	.	.	.	.	.	.	.	.	.	.	.	.	.	.	.	.	.	.	8B\	ja-	dell'a-	.
.	.	.	.	.	.	.	.	.	.	.	.	.	.	.	.	.	.	.	.	.	.	.	.	.	.	.	.	.	.	.	.	.	.	.	.	.	.	8c#X\	-ko	-mor	.
*v	*v	*	*	*	*	*	*	*	*	*	*	*	*	*	*	*	*	*	*	*	*	*	*	*	*	*	*	*	*	*	*	*	*	*	*	*	*	*	*	*	*
=20	=20	=20	=20	=20	=20	=20	=20	=20	=20	=20	=20	=20	=20	=20	=20	=20	=20	=20	=20	=20	=20	=20	=20	=20	=20	=20	=20	=20	=20	=20	=20	=20	=20	=20	=20	=20	=20	=20	=20	=20
2.D\ 2.d	2.a/	4g\	.	1ryy	.	.	1ryy	.	.	.	1ryy	.	.	1ryy	.	.	.	1ryy	.	.	1ryy	.	.	.	1ryy	.	.	.	1ryy	.	.	.	1ryy	.	.	.	2d\	czą-	so-	.
.	.	8.f#X\L	.	.	.	.	.	.	.	.	.	.	.	.	.	.	.	.	.	.	.	.	.	.	.	.	.	.	.	.	.	.	.	.	.	.	.	.	.	.
.	.	16e\Jk	.	.	.	.	.	.	.	.	.	.	.	.	.	.	.	.	.	.	.	.	.	.	.	.	.	.	.	.	.	.	.	.	.	.	.	.	.	.
.	.	4f#\	.	.	.	.	.	.	.	.	.	.	.	.	.	.	.	.	.	.	.	.	.	.	.	.	.	.	.	.	.	.	.	.	.	.	4A\	-bry	-fiae	.
(>4E\ 4B	4g/	(<4e\	.	.	.	.	.	.	.	.	.	.	.	.	.	.	.	.	.	.	.	.	.	.	.	.	.	.	.	.	.	.	.	.	.	.	8G\	te	al-	.
.	.	.	.	.	.	.	.	.	.	.	.	.	.	.	.	.	.	.	.	.	.	.	.	.	.	.	.	.	.	.	.	.	.	.	.	.	8A\	i	-le	.
!!LO:LB:g=original
=21	=21	=21	=21	=21	=21	=21	=21	=21	=21	=21	=21	=21	=21	=21	=21	=21	=21	=21	=21	=21	=21	=21	=21	=21	=21	=21	=21	=21	=21	=21	=21	=21	=21	=21	=21	=21	=21	=21	=21	=21
*	*	*	*	*	*	*	*	*	*	*	*	*	*	*	*	*	*	*	*	*	*	*	*	*	*	*	*	*	*	*	*	*	*	*	*	*	*^	*	*	*
2.BB\) 2.B	2.f#X/	4e\)	.	1ryy	.	.	1ryy	.	.	.	1ryy	.	.	1ryy	.	.	.	1ryy	.	.	1ryy	.	.	.	1ryy	.	.	.	1ryy	.	.	.	1ryy	.	.	.	2B\	2ryy	śla-	pa-	.
.	.	8.d\L	.	.	.	.	.	.	.	.	.	.	.	.	.	.	.	.	.	.	.	.	.	.	.	.	.	.	.	.	.	.	.	.	.	.	.	.	.	.	.
.	.	16c#X\Jk	.	.	.	.	.	.	.	.	.	.	.	.	.	.	.	.	.	.	.	.	.	.	.	.	.	.	.	.	.	.	.	.	.	.	.	.	.	.	.
.	.	4d\	.	.	.	.	.	.	.	.	.	.	.	.	.	.	.	.	.	.	.	.	.	.	.	.	.	.	.	.	.	.	.	.	.	.	8F#X\	8ryy	-zy	-vie	.
.	.	.	.	.	.	.	.	.	.	.	.	.	.	.	.	.	.	.	.	.	.	.	.	.	.	.	.	.	.	.	.	.	.	.	.	.	8F#\	8rc@	ni	.	.
4C\ [>4G	4e/	[<4cn\	.	.	.	.	.	.	.	.	.	.	.	.	.	.	.	.	.	.	.	.	.	.	.	.	.	.	.	.	.	.	.	.	.	.	8E\	8ryy	z nich	sal-	.
.	.	.	.	.	.	.	.	.	.	.	.	.	.	.	.	.	.	.	.	.	.	.	.	.	.	.	.	.	.	.	.	.	.	.	.	.	8F#\	8ryy	o-	-vi-	.
=22	=22	=22	=22	=22	=22	=22	=22	=22	=22	=22	=22	=22	=22	=22	=22	=22	=22	=22	=22	=22	=22	=22	=22	=22	=22	=22	=22	=22	=22	=22	=22	=22	=22	=22	=22	=22	=22	=22	=22	=22	=22
*^	*	*	*	*	*	*	*	*	*	*	*	*	*	*	*	*	*	*	*	*	*	*	*	*	*	*	*	*	*	*	*	*	*	*	*	*	*	*	*	*	*
!	!	!	!	!	!	!	!	!	!	!	!	!	!	!	!	!	!	!	!	!	!	!	!	!	!	!	!	!	!	!	!	!	!	!	!	!	!	!LO:TX:t=P:problem=4\right&colon; global	!	!	!	!
(>2G/]	(<2GG\	(>2d/	4c\]	.	1ryy	.	.	1ryy	.	.	.	1ryy	.	.	1ryy	.	.	.	1ryy	.	.	1ryy	.	.	.	1ryy	.	.	.	1ryy	.	.	.	1ryy	.	.	.	4G\@	2G\	-wo-	-ves-	.
.	.	.	8.B\L	.	.	.	.	.	.	.	.	.	.	.	.	.	.	.	.	.	.	.	.	.	.	.	.	.	.	.	.	.	.	.	.	.	.	4G\@	.	.	-te on-	.
.	.	.	16A\Jk	.	.	.	.	.	.	.	.	.	.	.	.	.	.	.	.	.	.	.	.	.	.	.	.	.	.	.	.	.	.	.	.	.	.	.	.	.	.	.
!	!	!	!	!	!	!	!	!	!	!	!	!	!	!	!	!	!	!	!	!	!	!	!	!	!	!	!	!	!	!	!	!	!	!	!	!	!	!LO:TX:t=P:problem=4\left&colon; global	!	!	!	!
4D/)	4BB\	4g/	2G\	.	.	.	.	.	.	.	.	.	.	.	.	.	.	.	.	.	.	.	.	.	.	.	.	.	.	.	.	.	.	.	.	.	.	4c\	2ryy	-cu,	-te ap-	.
4E/	4C\	4a/	.	.	.	.	.	.	.	.	.	.	.	.	.	.	.	.	.	.	.	.	.	.	.	.	.	.	.	.	.	.	.	.	.	.	.	4A\	.	ni	-pas-	.
*	*	*	*	*	*	*	*	*	*	*	*	*	*	*	*	*	*	*	*	*	*	*	*	*	*	*	*	*	*	*	*	*	*	*	*	*	*	*v	*v	*	*	*
=23	=23	=23	=23	=23	=23	=23	=23	=23	=23	=23	=23	=23	=23	=23	=23	=23	=23	=23	=23	=23	=23	=23	=23	=23	=23	=23	=23	=23	=23	=23	=23	=23	=23	=23	=23	=23	=23	=23	=23	=23	=23
4d/	4D\	4b/	(<2g\	.	1ryy	.	.	1ryy	.	.	.	1ryy	.	.	1ryy	.	.	.	1ryy	.	.	1ryy	.	.	.	1ryy	.	.	.	1ryy	.	.	.	1ryy	.	.	.	(>4.G\	kwia-	-si-	.
4c/ 4ej	4E-X\	4cc/	.	.	.	.	.	.	.	.	.	.	.	.	.	.	.	.	.	.	.	.	.	.	.	.	.	.	.	.	.	.	.	.	.	.	.	.	.	.	.
.	.	.	.	.	.	.	.	.	.	.	.	.	.	.	.	.	.	.	.	.	.	.	.	.	.	.	.	.	.	.	.	.	.	.	.	.	.	16A\LL	.	.	.
.	.	.	.	.	.	.	.	.	.	.	.	.	.	.	.	.	.	.	.	.	.	.	.	.	.	.	.	.	.	.	.	.	.	.	.	.	.	16G\JJ	.	.	.
4A/	4D\)	4dd/)	4f#X\)	.	.	.	.	.	.	.	.	.	.	.	.	.	.	.	.	.	.	.	.	.	.	.	.	.	.	.	.	.	.	.	.	.	.	8F#X\)	-tu,	-re,	.
.	.	.	.	.	.	.	.	.	.	.	.	.	.	.	.	.	.	.	.	.	.	.	.	.	.	.	.	.	.	.	.	.	.	.	.	.	.	8r	.	.	.
4r	4ryy	4r	4ryy	.	.	.	.	.	.	.	.	.	.	.	.	.	.	.	.	.	.	.	.	.	.	.	.	.	.	.	.	.	.	.	.	.	.	8d\	a-	co-	.
.	.	.	.	.	.	.	.	.	.	.	.	.	.	.	.	.	.	.	.	.	.	.	.	.	.	.	.	.	.	.	.	.	.	.	.	.	.	8B\	-ni	-me i	.
*v	*v	*	*	*	*	*	*	*	*	*	*	*	*	*	*	*	*	*	*	*	*	*	*	*	*	*	*	*	*	*	*	*	*	*	*	*	*	*	*	*	*
*	*v	*v	*	*	*	*	*	*	*	*	*	*	*	*	*	*	*	*	*	*	*	*	*	*	*	*	*	*	*	*	*	*	*	*	*	*	*	*	*	*
=24	=24	=24	=24	=24	=24	=24	=24	=24	=24	=24	=24	=24	=24	=24	=24	=24	=24	=24	=24	=24	=24	=24	=24	=24	=24	=24	=24	=24	=24	=24	=24	=24	=24	=24	=24	=24	=24	=24	=24
[<1G^< 1d	(>1b 1gg	.	1ryy	.	.	1ryy	.	.	.	1ryy	.	.	1ryy	.	.	.	1ryy	.	.	1ryy	.	.	.	1ryy	.	.	.	1ryy	.	.	.	1ryy	.	.	.	4G\	się	vi-	.
.	.	.	.	.	.	.	.	.	.	.	.	.	.	.	.	.	.	.	.	.	.	.	.	.	.	.	.	.	.	.	.	.	.	.	.	4G\	u-	-mi-	.
.	.	.	.	.	.	.	.	.	.	.	.	.	.	.	.	.	.	.	.	.	.	.	.	.	.	.	.	.	.	.	.	.	.	.	.	4F#X\	-kar-	-ni	.
.	.	.	.	.	.	.	.	.	.	.	.	.	.	.	.	.	.	.	.	.	.	.	.	.	.	.	.	.	.	.	.	.	.	.	.	4G\	-mi	fles-	.
!!LO:PB:g=original
=25	=25	=25	=25	=25	=25	=25	=25	=25	=25	=25	=25	=25	=25	=25	=25	=25	=25	=25	=25	=25	=25	=25	=25	=25	=25	=25	=25	=25	=25	=25	=25	=25	=25	=25	=25	=25	=25	=25	=25
*^	*^	*	*	*	*	*	*	*	*	*	*	*	*	*	*	*	*	*	*	*	*	*	*	*	*	*	*	*	*	*	*	*	*	*	*	*	*	*	*
4e/	1G_<	2aa/	2cc\	.	1ryy	.	.	1ryy	.	.	.	1ryy	.	.	1ryy	.	.	.	1ryy	.	.	1ryy	.	.	.	1ryy	.	.	.	1ryy	.	.	.	1ryy	.	.	.	2A\	źwie-	sno-	.
4f#X/	.	.	.	.	.	.	.	.	.	.	.	.	.	.	.	.	.	.	.	.	.	.	.	.	.	.	.	.	.	.	.	.	.	.	.	.	.	.	.	.	.
2g/	.	[>2gg/)	[<2b\	.	.	.	.	.	.	.	.	.	.	.	.	.	.	.	.	.	.	.	.	.	.	.	.	.	.	.	.	.	.	.	.	.	.	8G\	-rze,	-si	.
.	.	.	.	.	.	.	.	.	.	.	.	.	.	.	.	.	.	.	.	.	.	.	.	.	.	.	.	.	.	.	.	.	.	.	.	.	.	8r	.	.	.
.	.	.	.	.	.	.	.	.	.	.	.	.	.	.	.	.	.	.	.	.	.	.	.	.	.	.	.	.	.	.	.	.	.	.	.	.	.	8d\	a-	on-	.
.	.	.	.	.	.	.	.	.	.	.	.	.	.	.	.	.	.	.	.	.	.	.	.	.	.	.	.	.	.	.	.	.	.	.	.	.	.	8B\	-ni	-te in-	.
=26	=26	=26	=26	=26	=26	=26	=26	=26	=26	=26	=26	=26	=26	=26	=26	=26	=26	=26	=26	=26	=26	=26	=26	=26	=26	=26	=26	=26	=26	=26	=26	=26	=26	=26	=26	=26	=26	=26	=26	=26	=26
1d	1G^_<	(>1gg]	(<1b]	.	1ryy	.	.	1ryy	.	.	.	1ryy	.	.	1ryy	.	.	.	1ryy	.	.	1ryy	.	.	.	1ryy	.	.	.	1ryy	.	.	.	1ryy	.	.	.	4G\	czło-	-tri	.
.	.	.	.	.	.	.	.	.	.	.	.	.	.	.	.	.	.	.	.	.	.	.	.	.	.	.	.	.	.	.	.	.	.	.	.	.	.	4G\	-wiek	ce un-	.
.	.	.	.	.	.	.	.	.	.	.	.	.	.	.	.	.	.	.	.	.	.	.	.	.	.	.	.	.	.	.	.	.	.	.	.	.	.	4F#X\	się	-si	.
.	.	.	.	.	.	.	.	.	.	.	.	.	.	.	.	.	.	.	.	.	.	.	.	.	.	.	.	.	.	.	.	.	.	.	.	.	.	4G\	u-	glir-	.
=27	=27	=27	=27	=27	=27	=27	=27	=27	=27	=27	=27	=27	=27	=27	=27	=27	=27	=27	=27	=27	=27	=27	=27	=27	=27	=27	=27	=27	=27	=27	=27	=27	=27	=27	=27	=27	=27	=27	=27	=27	=27
*	*	*	*	*	*	*	*	*	*	*	*	*	*	*	*	*	*	*	*	*	*	*	*	*	*	*	*	*	*	*	*	*	*	*	*	*	*	*^	*	*	*
(>2e-X/	4G\]	(>2aa/)	(>2cc\)	.	1ryy	.	.	1ryy	.	.	.	1ryy	.	.	1ryy	.	.	.	1ryy	.	.	1ryy	.	.	.	1ryy	.	.	.	1ryy	.	.	.	1ryy	.	.	.	2A\	2ryy	-bie-	-lan-	.
.	4F#X\	.	.	.	.	.	.	.	.	.	.	.	.	.	.	.	.	.	.	.	.	.	.	.	.	.	.	.	.	.	.	.	.	.	.	.	.	.	.	.	.	.
8d/)	8G\	8gg/)	8b\)	.	.	.	.	.	.	.	.	.	.	.	.	.	.	.	.	.	.	.	.	.	.	.	.	.	.	.	.	.	.	.	.	.	.	4G\	4ryy	-rze	-ae	.
8ryy	8r	8r	8ryy	.	.	.	.	.	.	.	.	.	.	.	.	.	.	.	.	.	.	.	.	.	.	.	.	.	.	.	.	.	.	.	.	.	.	.	.	.	.	.
4ryy	4Fn\	(>8a/L	(<4f\	.	.	.	.	.	.	.	.	.	.	.	.	.	.	.	.	.	.	.	.	.	.	.	.	.	.	.	.	.	.	.	.	.	.	8A\L@	8A/	lecz	a-	.
.	.	8b/J	.	.	.	.	.	.	.	.	.	.	.	.	.	.	.	.	.	.	.	.	.	.	.	.	.	.	.	.	.	.	.	.	.	.	.	8B\J@	8B/	.	-voir	.
*v	*v	*	*	*	*	*	*	*	*	*	*	*	*	*	*	*	*	*	*	*	*	*	*	*	*	*	*	*	*	*	*	*	*	*	*	*	*	*v	*v	*	*	*
!!LO:LB:g=original
=28	=28	=28	=28	=28	=28	=28	=28	=28	=28	=28	=28	=28	=28	=28	=28	=28	=28	=28	=28	=28	=28	=28	=28	=28	=28	=28	=28	=28	=28	=28	=28	=28	=28	=28	=28	=28	=28	=28	=28	=28
2.C\ 2.G	2.cc/	4f\)	.	1ryy	.	.	1ryy	.	.	.	1ryy	.	.	1ryy	.	.	.	1ryy	.	.	1ryy	.	.	.	1ryy	.	.	.	1ryy	.	.	.	1ryy	.	.	.	2c\	w won-	si-	.
.	.	8e\L	.	.	.	.	.	.	.	.	.	.	.	.	.	.	.	.	.	.	.	.	.	.	.	.	.	.	.	.	.	.	.	.	.	.	.	.	.	.
.	.	8d\J	.	.	.	.	.	.	.	.	.	.	.	.	.	.	.	.	.	.	.	.	.	.	.	.	.	.	.	.	.	.	.	.	.	.	.	.	.	.
.	.	4e\)	.	.	.	.	.	.	.	.	.	.	.	.	.	.	.	.	.	.	.	.	.	.	.	.	.	.	.	.	.	.	.	.	.	.	8G\	-ne	-ti	.
.	.	.	.	.	.	.	.	.	.	.	.	.	.	.	.	.	.	.	.	.	.	.	.	.	.	.	.	.	.	.	.	.	.	.	.	.	8G\	skrę-	ad	.
4F\	(>8a/L	[<4f\	.	.	.	.	.	.	.	.	.	.	.	.	.	.	.	.	.	.	.	.	.	.	.	.	.	.	.	.	.	.	.	.	.	.	8A\	-co-	in-	.
.	8b/J	.	.	.	.	.	.	.	.	.	.	.	.	.	.	.	.	.	.	.	.	.	.	.	.	.	.	.	.	.	.	.	.	.	.	.	8B\	-ne	-frut-	.
=29	=29	=29	=29	=29	=29	=29	=29	=29	=29	=29	=29	=29	=29	=29	=29	=29	=29	=29	=29	=29	=29	=29	=29	=29	=29	=29	=29	=29	=29	=29	=29	=29	=29	=29	=29	=29	=29	=29	=29	=29
*^	*	*	*	*	*	*	*	*	*	*	*	*	*	*	*	*	*	*	*	*	*	*	*	*	*	*	*	*	*	*	*	*	*	*	*	*	*	*	*	*
2.G/	1C	2.cc/)	4f\]	.	1ryy	.	.	1ryy	.	.	.	1ryy	.	.	1ryy	.	.	.	1ryy	.	.	1ryy	.	.	.	1ryy	.	.	.	1ryy	.	.	.	1ryy	.	.	.	2c\	wian-	-tuo-	.
.	.	.	8e\L	.	.	.	.	.	.	.	.	.	.	.	.	.	.	.	.	.	.	.	.	.	.	.	.	.	.	.	.	.	.	.	.	.	.	.	.	.	.
.	.	.	8d\J	.	.	.	.	.	.	.	.	.	.	.	.	.	.	.	.	.	.	.	.	.	.	.	.	.	.	.	.	.	.	.	.	.	.	.	.	.	.
!	!	!	!	!	!	!	!	!	!	!	!	!	!	!	!	!	!	!	!	!	!	!	!	!	!	!	!	!	!	!	!	!	!	!	!	!	!	!LO:TX:t=P:4\right:problem	!	!	!
.	.	.	2e\	.	.	.	.	.	.	.	.	.	.	.	.	.	.	.	.	.	.	.	.	.	.	.	.	.	.	.	.	.	.	.	.	.	.	4c\@	.	-si	.
!	!	!LO:TX:t=P:problem=początek łuku bez zakończenia	!	!	!	!	!	!	!	!	!	!	!	!	!	!	!	!	!	!	!	!	!	!	!	!	!	!	!	!	!	!	!	!	!	!	!	!	!	!	!
4G#X/	.	8cc/L	.	.	.	.	.	.	.	.	.	.	.	.	.	.	.	.	.	.	.	.	.	.	.	.	.	.	.	.	.	.	.	.	.	.	.	8c\	-ki,	o-	.
.	.	8b/J	.	.	.	.	.	.	.	.	.	.	.	.	.	.	.	.	.	.	.	.	.	.	.	.	.	.	.	.	.	.	.	.	.	.	.	8B\	na	-ra	.
=30	=30	=30	=30	=30	=30	=30	=30	=30	=30	=30	=30	=30	=30	=30	=30	=30	=30	=30	=30	=30	=30	=30	=30	=30	=30	=30	=30	=30	=30	=30	=30	=30	=30	=30	=30	=30	=30	=30	=30	=30	=30
!	!	!	!	!	!	!	!	!	!	!	!	!	!	!	!	!	!	!	!	!	!	!	!	!	!	!	!	!	!	!	!	!	!	!	!	!	!	!LO:TX:t=P:problem=4\left&colon; global	!	!	!
4A/	4C\	4a/	1e	.	1ryy	.	.	1ryy	.	.	.	1ryy	.	.	1ryy	.	.	.	1ryy	.	.	1ryy	.	.	.	1ryy	.	.	.	1ryy	.	.	.	1ryy	.	.	.	4A\	ścia-	pem-	.
4B/	4BB\	4g/	.	.	.	.	.	.	.	.	.	.	.	.	.	.	.	.	.	.	.	.	.	.	.	.	.	.	.	.	.	.	.	.	.	.	.	4G\	-nie	-do-	.
4c/	4AA\	[>2f#X/	.	.	.	.	.	.	.	.	.	.	.	.	.	.	.	.	.	.	.	.	.	.	.	.	.	.	.	.	.	.	.	.	.	.	.	4F#X\	wi-	-no	.
4c#X/	4AA#X\	.	.	.	.	.	.	.	.	.	.	.	.	.	.	.	.	.	.	.	.	.	.	.	.	.	.	.	.	.	.	.	.	.	.	.	.	8.E\	-szą	dal-	.
.	.	.	.	.	.	.	.	.	.	.	.	.	.	.	.	.	.	.	.	.	.	.	.	.	.	.	.	.	.	.	.	.	.	.	.	.	.	16E\	wy-	-la	.
!!LO:LB:g=original
=31	=31	=31	=31	=31	=31	=31	=31	=31	=31	=31	=31	=31	=31	=31	=31	=31	=31	=31	=31	=31	=31	=31	=31	=31	=31	=31	=31	=31	=31	=31	=31	=31	=31	=31	=31	=31	=31	=31	=31	=31	=31
4.B/	8BB\	4.f#X/]	4.d#X\	.	1ryy	.	.	1ryy	.	.	.	1ryy	.	.	1ryy	.	.	.	1ryy	.	.	1ryy	.	.	.	1ryy	.	.	.	1ryy	.	.	.	1ryy	.	.	.	2B\	-so-	vol-	.
.	8ryy	.	.	.	.	.	.	.	.	.	.	.	.	.	.	.	.	.	.	.	.	.	.	.	.	.	.	.	.	.	.	.	.	.	.	.	.	.	.	.	.
.	4ryy	.	.	.	.	.	.	.	.	.	.	.	.	.	.	.	.	.	.	.	.	.	.	.	.	.	.	.	.	.	.	.	.	.	.	.	.	.	.	.	.
(<16F#X/LL	.	(<16d#/LL	8ryy	.	.	.	.	.	.	.	.	.	.	.	.	.	.	.	.	.	.	.	.	.	.	.	.	.	.	.	.	.	.	.	.	.	.	.	.	.	.
16D#X/JJ	.	16f#/JJ	.	.	.	.	.	.	.	.	.	.	.	.	.	.	.	.	.	.	.	.	.	.	.	.	.	.	.	.	.	.	.	.	.	.	.	.	.	.	.
8BB/)	2ryy	8b/)	2ryy	.	.	.	.	.	.	.	.	.	.	.	.	.	.	.	.	.	.	.	.	.	.	.	.	.	.	.	.	.	.	.	.	.	.	8BB/	-ko,	-ta.	.
8r	.	8r	.	.	.	.	.	.	.	.	.	.	.	.	.	.	.	.	.	.	.	.	.	.	.	.	.	.	.	.	.	.	.	.	.	.	.	8r	.	.	.
(<8BB/L	.	(<8B/L	.	.	.	.	.	.	.	.	.	.	.	.	.	.	.	.	.	.	.	.	.	.	.	.	.	.	.	.	.	.	.	.	.	.	.	8BB/	tak	Vos-	.
8C#X/J)	.	8c#X/J)	.	.	.	.	.	.	.	.	.	.	.	.	.	.	.	.	.	.	.	.	.	.	.	.	.	.	.	.	.	.	.	.	.	.	.	8C#X/	wy-	-tra	.
*v	*v	*	*	*	*	*	*	*	*	*	*	*	*	*	*	*	*	*	*	*	*	*	*	*	*	*	*	*	*	*	*	*	*	*	*	*	*	*	*	*	*
*	*v	*v	*	*	*	*	*	*	*	*	*	*	*	*	*	*	*	*	*	*	*	*	*	*	*	*	*	*	*	*	*	*	*	*	*	*	*	*	*	*
=32	=32	=32	=32	=32	=32	=32	=32	=32	=32	=32	=32	=32	=32	=32	=32	=32	=32	=32	=32	=32	=32	=32	=32	=32	=32	=32	=32	=32	=32	=32	=32	=32	=32	=32	=32	=32	=32	=32	=32
!	!LO:TX:t=P:problem:problem=diminuendolike accent	!	!	!	!	!	!	!	!	!	!	!	!	!	!	!	!	!	!	!	!	!	!	!	!	!	!	!	!	!	!	!	!	!	!	!	!	!	!
4..D#X\	4..d#X/^<	.	1ryy	.	.	1ryy	.	.	.	1ryy	.	.	1ryy	.	.	.	1ryy	.	.	1ryy	.	.	.	1ryy	.	.	.	1ryy	.	.	.	1ryy	.	.	.	4..D\	-so-	me	.
16D#\	16d#/	.	.	.	.	.	.	.	.	.	.	.	.	.	.	.	.	.	.	.	.	.	.	.	.	.	.	.	.	.	.	.	.	.	.	16D\	-ko,	tu o-	.
!	!LO:TX:t=P:problem:problem=diminuendolike accent	!	!	!	!	!	!	!	!	!	!	!	!	!	!	!	!	!	!	!	!	!	!	!	!	!	!	!	!	!	!	!	!	!	!	!	!	!	!
4..F#X\	4..f#X/^<	.	.	.	.	.	.	.	.	.	.	.	.	.	.	.	.	.	.	.	.	.	.	.	.	.	.	.	.	.	.	.	.	.	.	4..F#X\	o	-mi-	.
16F#\	16f#/	.	.	.	.	.	.	.	.	.	.	.	.	.	.	.	.	.	.	.	.	.	.	.	.	.	.	.	.	.	.	.	.	.	.	16F#\	zie-	-se	.
=33	=33	=33	=33	=33	=33	=33	=33	=33	=33	=33	=33	=33	=33	=33	=33	=33	=33	=33	=33	=33	=33	=33	=33	=33	=33	=33	=33	=33	=33	=33	=33	=33	=33	=33	=33	=33	=33	=33	=33
!	!LO:TX:t=P:problem:problem=diminuendolike accent	!	!	!	!	!	!	!	!	!	!	!	!	!	!	!	!	!	!	!	!	!	!	!	!	!	!	!	!	!	!	!	!	!	!	!	!	!	!
(>2A\	(<2a/^<	.	1ryy	.	.	1ryy	.	.	.	1ryy	.	.	1ryy	.	.	.	1ryy	.	.	1ryy	.	.	.	1ryy	.	.	.	1ryy	.	.	.	1ryy	.	.	.	2A\	-mian-	zan-	.
8F#X\)	8f#X/)	.	.	.	.	.	.	.	.	.	.	.	.	.	.	.	.	.	.	.	.	.	.	.	.	.	.	.	.	.	.	.	.	.	.	8F#X\	-ki!	-de,	.
8r	8r	.	.	.	.	.	.	.	.	.	.	.	.	.	.	.	.	.	.	.	.	.	.	.	.	.	.	.	.	.	.	.	.	.	.	8r	.	.	.
8D#X\L	8d#X^</L	.	.	.	.	.	.	.	.	.	.	.	.	.	.	.	.	.	.	.	.	.	.	.	.	.	.	.	.	.	.	.	.	.	.	8D#X\	by-	trop-	.
8E\J	8e/J	.	.	.	.	.	.	.	.	.	.	.	.	.	.	.	.	.	.	.	.	.	.	.	.	.	.	.	.	.	.	.	.	.	.	8E\	-ła	-pim	.
!!LO:LB:g=original
=34	=34	=34	=34	=34	=34	=34	=34	=34	=34	=34	=34	=34	=34	=34	=34	=34	=34	=34	=34	=34	=34	=34	=34	=34	=34	=34	=34	=34	=34	=34	=34	=34	=34	=34	=34	=34	=34	=34	=34
4F#X^>\	4f#X/	.	1ryy	.	.	1ryy	.	.	.	1ryy	.	.	1ryy	.	.	.	1ryy	.	.	1ryy	.	.	.	1ryy	.	.	.	1ryy	.	.	.	1ryy	.	.	.	4F#X^>\	wa-	al-	.
4G^>\	4g/	.	.	.	.	.	.	.	.	.	.	.	.	.	.	.	.	.	.	.	.	.	.	.	.	.	.	.	.	.	.	.	.	.	.	4G^>\	-sza	-to e-	.
4A^>\	4a/	.	.	.	.	.	.	.	.	.	.	.	.	.	.	.	.	.	.	.	.	.	.	.	.	.	.	.	.	.	.	.	.	.	.	4A^>\	pierś	-na	.
4B^>\	4b/	.	.	.	.	.	.	.	.	.	.	.	.	.	.	.	.	.	.	.	.	.	.	.	.	.	.	.	.	.	.	.	.	.	.	4B^>\	i	ri-	.
=35	=35	=35	=35	=35	=35	=35	=35	=35	=35	=35	=35	=35	=35	=35	=35	=35	=35	=35	=35	=35	=35	=35	=35	=35	=35	=35	=35	=35	=35	=35	=35	=35	=35	=35	=35	=35	=35	=35	=35
*	*^	*	*	*	*	*	*	*	*	*	*	*	*	*	*	*	*	*	*	*	*	*	*	*	*	*	*	*	*	*	*	*	*	*	*	*	*	*	*
!	!	!	!	!	!	!	!	!	!	!	!	!	!	!	!	!	!	!	!	!	!	!	!	!	!	!	!	!	!	!	!	!	!	!	!	!	!	!	!	!LO:DY:b:rj:t=fp.
4c\	[>1cc^>	2r	.	1ryy	.	.	1ryy	.	.	.	1ryy	.	.	1ryy	.	.	.	1ryy	.	.	1ryy	.	.	.	1ryy	.	.	.	1ryy	.	.	.	1ryy	.	.	.	[>1c	o-	-vol-	fp
4r	.	.	.	.	.	.	.	.	.	.	.	.	.	.	.	.	.	.	.	.	.	.	.	.	.	.	.	.	.	.	.	.	.	.	.	.	.	.	.	.
!LO:TX:b:t=rallentando.-_:dur=6q:ext=ud:problem=text with extention lines	!	!	!	!	!	!	!	!	!	!	!	!	!	!	!	!	!	!	!	!	!	!	!	!	!	!	!	!	!	!	!	!	!	!	!	!	!	!	!	!
2EE-X^>\ 2GG 2E-X	.	2c\ 2g	.	.	.	.	.	.	.	.	.	.	.	.	.	.	.	.	.	.	.	.	.	.	.	.	.	.	.	.	.	.	.	.	.	.	.	.	.	.
=36	=36	=36	=36	=36	=36	=36	=36	=36	=36	=36	=36	=36	=36	=36	=36	=36	=36	=36	=36	=36	=36	=36	=36	=36	=36	=36	=36	=36	=36	=36	=36	=36	=36	=36	=36	=36	=36	=36	=36	=36
2DD^>\ 2AA 2D	1cc]	2A\ 2d 2f#X	.	1ryy	.	.	1ryy	.	.	.	1ryy	.	.	1ryy	.	.	.	1ryy	.	.	1ryy	.	.	.	1ryy	.	.	.	1ryy	.	.	.	1ryy	.	.	.	2c\_>	.	.	.
2GG^>\	.	2G\ 2d 2fn	.	.	.	.	.	.	.	.	.	.	.	.	.	.	.	.	.	.	.	.	.	.	.	.	.	.	.	.	.	.	.	.	.	.	8c\L]	.	.	.
!	!	!	!	!	!	!	!	!	!	!	!	!	!	!	!	!	!	!	!	!	!	!	!	!	!	!	!	!	!	!	!	!	!	!	!	!	!LO:TX:a:i:t=rallent.	!	!	!
.	.	.	.	.	.	.	.	.	.	.	.	.	.	.	.	.	.	.	.	.	.	.	.	.	.	.	.	.	.	.	.	.	.	.	.	.	8B\	.	.	.
.	.	.	.	.	.	.	.	.	.	.	.	.	.	.	.	.	.	.	.	.	.	.	.	.	.	.	.	.	.	.	.	.	.	.	.	.	8A\	.	.	.
!	!	!	!	!	!	!	!	!	!	!	!	!	!	!	!	!	!	!	!	!	!	!	!	!	!	!	!	!	!	!	!	!	!	!	!	!	!LO:TX:b:t=V&colon;S&colon;	!	!	!
.	.	.	.	.	.	.	.	.	.	.	.	.	.	.	.	.	.	.	.	.	.	.	.	.	.	.	.	.	.	.	.	.	.	.	.	.	8A\J	.	.	.
*	*v	*v	*	*	*	*	*	*	*	*	*	*	*	*	*	*	*	*	*	*	*	*	*	*	*	*	*	*	*	*	*	*	*	*	*	*	*	*	*	*
!!LO:PB:g=original
==37	==37	==37	==37	==37	==37	==37	==37	==37	==37	==37	==37	==37	==37	==37	==37	==37	==37	==37	==37	==37	==37	==37	==37	==37	==37	==37	==37	==37	==37	==37	==37	==37	==37	==37	==37	==37	==37	==37	==37
!!!OMD: a tempo. un poco più lento.
8CC\ 8GG	8G/ 8c 8e	.	1ryy	.	.	1ryy	.	.	.	1ryy	.	.	1ryy	.	.	.	1ryy	.	.	1ryy	.	.	.	1ryy	.	.	.	1ryy	.	.	.	1r	.	.	.	8c\	ko!	ta.	.
8r	8r	.	.	.	.	.	.	.	.	.	.	.	.	.	.	.	.	.	.	.	.	.	.	.	.	.	.	.	.	.	.	.	.	.	.	8r	.	.	.
8CC\L 8GG	8E<'</L 8c<	.	.	.	.	.	.	.	.	.	.	.	.	.	.	.	.	.	.	.	.	.	.	.	.	.	.	.	.	.	.	.	.	.	.	8c\	Któ-	Chi	.
8CC\J 8GG	8E<'</J 8c<	.	.	.	.	.	.	.	.	.	.	.	.	.	.	.	.	.	.	.	.	.	.	.	.	.	.	.	.	.	.	.	.	.	.	8c\	-ra	di	.
4CC\ 4GG	4E<^</ 4c<	.	.	.	.	.	.	.	.	.	.	.	.	.	.	.	.	.	.	.	.	.	.	.	.	.	.	.	.	.	.	.	.	.	.	8c\	do-	voi	.
.	.	.	.	.	.	.	.	.	.	.	.	.	.	.	.	.	.	.	.	.	.	.	.	.	.	.	.	.	.	.	.	.	.	.	.	8c\	-tąd	l'a-	.
8CC\L 8GG	8G<'</L 8B< 8d	.	.	.	.	.	.	.	.	.	.	.	.	.	.	.	.	.	.	.	.	.	.	.	.	.	.	.	.	.	.	.	.	.	.	8B\	czys-	-li il-	.
8CC\J 8GG	8G<'</J 8c 8e	.	.	.	.	.	.	.	.	.	.	.	.	.	.	.	.	.	.	.	.	.	.	.	.	.	.	.	.	.	.	.	.	.	.	8A\	-tém	-li-	.
=38	=38	=38	=38	=38	=38	=38	=38	=38	=38	=38	=38	=38	=38	=38	=38	=38	=38	=38	=38	=38	=38	=38	=38	=38	=38	=38	=38	=38	=38	=38	=38	=38	=38	=38	=38	=38	=38	=38	=38
!	!	!	!	!	!	!	!	!	!	!	!	!	!	!	!	!	!	!	!	!	!	!	!	!	!	!	!	!	!	!	!	!LO:TX:a:B:t=Starzec:note=podkreślone	!	!	!	!	!	!	!
4CC\ 4GG	4G</ 4d 4f	.	1ryy	.	.	1ryy	.	.	.	1ryy	.	.	1ryy	.	.	.	1ryy	.	.	1ryy	.	.	.	1ryy	.	.	.	1ryy	.	.	.	4.G\	Chi	któ-	.	2G\	skrzy-	-ba-	.
8CC\L 8GG	8G</L 8B 8d	.	.	.	.	.	.	.	.	.	.	.	.	.	.	.	.	.	.	.	.	.	.	.	.	.	.	.	.	.	.	.	.	.	.	.	.	.	.
8CC\J 8GG	8G</J 8c 8e	.	.	.	.	.	.	.	.	.	.	.	.	.	.	.	.	.	.	.	.	.	.	.	.	.	.	.	.	.	.	8G\	di	-ra	.	.	.	.	.
4CC\ 4GG	4G</ 4d 4f	.	.	.	.	.	.	.	.	.	.	.	.	.	.	.	.	.	.	.	.	.	.	.	.	.	.	.	.	.	.	8.G\	voi	do-	.	4G\	-dłem,	-[te],	.
.	.	.	.	.	.	.	.	.	.	.	.	.	.	.	.	.	.	.	.	.	.	.	.	.	.	.	.	.	.	.	.	16F\	l'al	-tąd	.	.	.	.	.
8GG\L	8G</L 8A<	.	.	.	.	.	.	.	.	.	.	.	.	.	.	.	.	.	.	.	.	.	.	.	.	.	.	.	.	.	.	8E\	il-	czy-	.	4r	.	.	.
8GG\J	8F</J 8G< 8B<	.	.	.	.	.	.	.	.	.	.	.	.	.	.	.	.	.	.	.	.	.	.	.	.	.	.	.	.	.	.	8D\	-li-	-stem	.	.	.	.	.
=39	=39	=39	=39	=39	=39	=39	=39	=39	=39	=39	=39	=39	=39	=39	=39	=39	=39	=39	=39	=39	=39	=39	=39	=39	=39	=39	=39	=39	=39	=39	=39	=39	=39	=39	=39	=39	=39	=39	=39
4CC\ 4GG	4E</ 4G< 4c<	.	1ryy	.	.	1ryy	.	.	.	1ryy	.	.	1ryy	.	.	.	1ryy	.	.	1ryy	.	.	.	1ryy	.	.	.	1ryy	.	.	.	2C/	-ba-	skrzy-	.	4r	.	.	.
8CC\L 8GG	8E</L 8c<	.	.	.	.	.	.	.	.	.	.	.	.	.	.	.	.	.	.	.	.	.	.	.	.	.	.	.	.	.	.	.	.	.	.	8c\	nie-	non	.
8CC\J 8GG	8E</J 8c<	.	.	.	.	.	.	.	.	.	.	.	.	.	.	.	.	.	.	.	.	.	.	.	.	.	.	.	.	.	.	.	.	.	.	8c\	-bie-	ho in	.
4CC\ 4GG	8E</L 8c<	.	.	.	.	.	.	.	.	.	.	.	.	.	.	.	.	.	.	.	.	.	.	.	.	.	.	.	.	.	.	4.C/	-te	-dłem	.	8c\	-skiej	cie-	.
.	8c</	.	.	.	.	.	.	.	.	.	.	.	.	.	.	.	.	.	.	.	.	.	.	.	.	.	.	.	.	.	.	.	.	.	.	8c\	nie	-lo an-	.
8CC\L 8GG	8G</ 8B< 8d	.	.	.	.	.	.	.	.	.	.	.	.	.	.	.	.	.	.	.	.	.	.	.	.	.	.	.	.	.	.	.	.	.	.	8B\	prze-	-cor-	.
8CC\J 8GG	8G</J 8c< 8e	.	.	.	.	.	.	.	.	.	.	.	.	.	.	.	.	.	.	.	.	.	.	.	.	.	.	.	.	.	.	8C/	non	nie-	.	8A\	-szła	-re-	.
!!LO:LB:g=original
=40	=40	=40	=40	=40	=40	=40	=40	=40	=40	=40	=40	=40	=40	=40	=40	=40	=40	=40	=40	=40	=40	=40	=40	=40	=40	=40	=40	=40	=40	=40	=40	=40	=40	=40	=40	=40	=40	=40	=40
4GGG/ 4GG	4G</ 4d 4f	.	1ryy	.	.	1ryy	.	.	.	1ryy	.	.	1ryy	.	.	.	1ryy	.	.	1ryy	.	.	.	1ryy	.	.	.	1ryy	.	.	.	4G\	ha in	-bie-	.	2G\	bra-	-ca-	.
8GG/L	8G</L 8B 8d	.	.	.	.	.	.	.	.	.	.	.	.	.	.	.	.	.	.	.	.	.	.	.	.	.	.	.	.	.	.	8G\	cie-	-skiej	.	.	.	.	.
8GG/J	8G</J 8c 8e	.	.	.	.	.	.	.	.	.	.	.	.	.	.	.	.	.	.	.	.	.	.	.	.	.	.	.	.	.	.	8G\	-lo	nie	.	.	.	.	.
4GGG/ 4GG	4G</ 4d 4f	.	.	.	.	.	.	.	.	.	.	.	.	.	.	.	.	.	.	.	.	.	.	.	.	.	.	.	.	.	.	8.G\L	an-	prze-	.	4G\	-my,	-te,	.
.	.	.	.	.	.	.	.	.	.	.	.	.	.	.	.	.	.	.	.	.	.	.	.	.	.	.	.	.	.	.	.	16F\Jk	-cor-	.	.	.	.	.	.
8GG/L	8G</L 8A<	.	.	.	.	.	.	.	.	.	.	.	.	.	.	.	.	.	.	.	.	.	.	.	.	.	.	.	.	.	.	8E\L	-re-	-szła	.	4r	.	.	.
8GG/J	8G</J 8B<	.	.	.	.	.	.	.	.	.	.	.	.	.	.	.	.	.	.	.	.	.	.	.	.	.	.	.	.	.	.	8D\J	.	.	.	.	.	.	.
=41	=41	=41	=41	=41	=41	=41	=41	=41	=41	=41	=41	=41	=41	=41	=41	=41	=41	=41	=41	=41	=41	=41	=41	=41	=41	=41	=41	=41	=41	=41	=41	=41	=41	=41	=41	=41	=41	=41	=41
4CC\ 4GG	4E</ 4c<	.	1ryy	.	.	1ryy	.	.	.	1ryy	.	.	1ryy	.	.	.	1ryy	.	.	1ryy	.	.	.	1ryy	.	.	.	1ryy	.	.	.	2C/	-ca-	bra-	.	4r	.	.	.
8CC\L 8C	8E</L 8c	.	.	.	.	.	.	.	.	.	.	.	.	.	.	.	.	.	.	.	.	.	.	.	.	.	.	.	.	.	.	.	.	.	.	8c\	was	den-	.
8CC\J 8C	8E</J 8c	.	.	.	.	.	.	.	.	.	.	.	.	.	.	.	.	.	.	.	.	.	.	.	.	.	.	.	.	.	.	.	.	.	.	8c\	tém	-ga a	.
4CC\ 4C	4E</ 4G< 4c	.	.	.	.	.	.	.	.	.	.	.	.	.	.	.	.	.	.	.	.	.	.	.	.	.	.	.	.	.	.	4C/	-te,	-my,	.	8.c\	świa-	noi	.
.	.	.	.	.	.	.	.	.	.	.	.	.	.	.	.	.	.	.	.	.	.	.	.	.	.	.	.	.	.	.	.	.	.	.	.	16c\	-tłem	nel	.
8CC\L 8C	8E</L 8G< 8c	.	.	.	.	.	.	.	.	.	.	.	.	.	.	.	.	.	.	.	.	.	.	.	.	.	.	.	.	.	.	8C/	rin-	was	.	8c\	i	di	.
8CC\J 8C	8E</J 8G< 8c	.	.	.	.	.	.	.	.	.	.	.	.	.	.	.	.	.	.	.	.	.	.	.	.	.	.	.	.	.	.	8C/	-ga a	tém	.	8c\	ka-	de'	.
=42	=42	=42	=42	=42	=42	=42	=42	=42	=42	=42	=42	=42	=42	=42	=42	=42	=42	=42	=42	=42	=42	=42	=42	=42	=42	=42	=42	=42	=42	=42	=42	=42	=42	=42	=42	=42	=42	=42	=42
4CC\ 4C	4F</ 4c 4d	.	1ryy	.	.	1ryy	.	.	.	1ryy	.	.	1ryy	.	.	.	1ryy	.	.	1ryy	.	.	.	1ryy	.	.	.	1ryy	.	.	.	4.C/	noi	świa-	.	8.c\	-dzi-	mor-	.
.	.	.	.	.	.	.	.	.	.	.	.	.	.	.	.	.	.	.	.	.	.	.	.	.	.	.	.	.	.	.	.	.	.	.	.	16c\	-dłem	-ti,	.
8CC\L 8C	8F</L 8c 8d	.	.	.	.	.	.	.	.	.	.	.	.	.	.	.	.	.	.	.	.	.	.	.	.	.	.	.	.	.	.	.	.	.	.	8c\	za-	di	.
8CC\J 8C	8F</J 8c 8d	.	.	.	.	.	.	.	.	.	.	.	.	.	.	.	.	.	.	.	.	.	.	.	.	.	.	.	.	.	.	8C/	nel	-tłem	.	8c\	-pra-	rid-	.
4CC\ 4C	4G</ 4c 4e	.	.	.	.	.	.	.	.	.	.	.	.	.	.	.	.	.	.	.	.	.	.	.	.	.	.	.	.	.	.	4.C/	di	za-	.	8.c\	-sza-	-to-	.
!	!	!	!	!	!	!	!	!	!	!	!	!	!	!	!	!	!	!	!	!	!	!	!	!	!	!	!	!	!	!	!	!	!	!	!	!LO:ACC:color=blue	!	!	!
.	.	.	.	.	.	.	.	.	.	.	.	.	.	.	.	.	.	.	.	.	.	.	.	.	.	.	.	.	.	.	.	.	.	.	.	16B-X\	-my,	-ri e	.
8CC\L 8C	8G</L 8c 8e	.	.	.	.	.	.	.	.	.	.	.	.	.	.	.	.	.	.	.	.	.	.	.	.	.	.	.	.	.	.	.	.	.	.	8A\	za-	si	.
8CC\J 8C	8G</J 8c 8e	.	.	.	.	.	.	.	.	.	.	.	.	.	.	.	.	.	.	.	.	.	.	.	.	.	.	.	.	.	.	8C/	de'	-pra-	.	8G\	-kli-	con-	.
!!LO:LB:g=original
=43	=43	=43	=43	=43	=43	=43	=43	=43	=43	=43	=43	=43	=43	=43	=43	=43	=43	=43	=43	=43	=43	=43	=43	=43	=43	=43	=43	=43	=43	=43	=43	=43	=43	=43	=43	=43	=43	=43	=43
*	*^	*	*	*	*	*	*	*	*	*	*	*	*	*	*	*	*	*	*	*	*	*	*	*	*	*	*	*	*	*	*	*	*	*	*	*	*	*	*
!	!	!	!	!	!	!	!	!	!	!	!	!	!	!	!	!	!	!	!	!	!	!	!	!	!	!	!	!	!	!	!	!	!LO:T:color=gray	!	!	!	!LO:T:color=gray	!	!	!
4FFF\ 4FF	2f/	4A</ 4c<	.	1ryy	.	.	1ryy	.	.	.	1ryy	.	.	1ryy	.	.	.	1ryy	.	.	1ryy	.	.	.	1ryy	.	.	.	1ryy	.	.	.	[>2A\	mor-	-sza-	.	[>2F\	-na-	-for-	.
8FF\L 8C	.	8A</L 8c<	.	.	.	.	.	.	.	.	.	.	.	.	.	.	.	.	.	.	.	.	.	.	.	.	.	.	.	.	.	.	.	.	.	.	.	.	.	.
8FF\J 8C	.	8A</J 8c<	.	.	.	.	.	.	.	.	.	.	.	.	.	.	.	.	.	.	.	.	.	.	.	.	.	.	.	.	.	.	.	.	.	.	.	.	.	.
4FF\ 4C	4f/	4A</ 4c<	.	.	.	.	.	.	.	.	.	.	.	.	.	.	.	.	.	.	.	.	.	.	.	.	.	.	.	.	.	.	4A\]	-ti,	-my,	.	4F\]	-my,	-ti,	.
8FF\L 8C	8A</L 8c< 8f	4ryy	.	.	.	.	.	.	.	.	.	.	.	.	.	.	.	.	.	.	.	.	.	.	.	.	.	.	.	.	.	.	8A\	si	za-	.	8F\	za-	si-	.
8FF\J 8C	8A</J 8c< 8f	.	.	.	.	.	.	.	.	.	.	.	.	.	.	.	.	.	.	.	.	.	.	.	.	.	.	.	.	.	.	.	8A\	ri-	-kli-	.	8F\	-pra-	-ri-	.
*	*v	*v	*	*	*	*	*	*	*	*	*	*	*	*	*	*	*	*	*	*	*	*	*	*	*	*	*	*	*	*	*	*	*	*	*	*	*	*	*	*
=44	=44	=44	=44	=44	=44	=44	=44	=44	=44	=44	=44	=44	=44	=44	=44	=44	=44	=44	=44	=44	=44	=44	=44	=44	=44	=44	=44	=44	=44	=44	=44	=44	=44	=44	=44	=44	=44	=44	=44
*^	*	*	*	*	*	*	*	*	*	*	*	*	*	*	*	*	*	*	*	*	*	*	*	*	*	*	*	*	*	*	*	*	*	*	*	*	*	*	*
*	*2\right	*	*	*	*	*	*	*	*	*	*	*	*	*	*	*	*	*	*	*	*	*	*	*	*	*	*	*	*	*	*	*	*	*	*	*	*	*	*	*
4D\	2DD\	4F</ 4B-X< 4f	.	1ryy	.	.	1ryy	.	.	.	1ryy	.	.	1ryy	.	.	.	1ryy	.	.	1ryy	.	.	.	1ryy	.	.	.	1ryy	.	.	.	4.B-X\	-sto-	-na-	.	4.d\	-sza-	-sto-	.
8D\L	.	8F</L 8B-< 8f	.	.	.	.	.	.	.	.	.	.	.	.	.	.	.	.	.	.	.	.	.	.	.	.	.	.	.	.	.	.	.	.	.	.	.	.	.	.
8D\J	.	8F</J 8B-< 8f	.	.	.	.	.	.	.	.	.	.	.	.	.	.	.	.	.	.	.	.	.	.	.	.	.	.	.	.	.	.	8B-\	-ri e	-my,	.	8d\	-my,	-ri e	.
4GG\	2ryy	4G</ 4Bn< 4f	.	.	.	.	.	.	.	.	.	.	.	.	.	.	.	.	.	.	.	.	.	.	.	.	.	.	.	.	.	.	4.Bn\	si	za-	.	4.G\	za-	si	.
8GG\L	.	8G</L 8B< 8f	.	.	.	.	.	.	.	.	.	.	.	.	.	.	.	.	.	.	.	.	.	.	.	.	.	.	.	.	.	.	.	.	.	.	.	.	.	.
8GG\J	.	8G</J 8B< 8f	.	.	.	.	.	.	.	.	.	.	.	.	.	.	.	.	.	.	.	.	.	.	.	.	.	.	.	.	.	.	8B\	con-	-pra-	.	8G\	-pra-	con-	.
*v	*v	*	*	*	*	*	*	*	*	*	*	*	*	*	*	*	*	*	*	*	*	*	*	*	*	*	*	*	*	*	*	*	*	*	*	*	*	*	*	*
=45	=45	=45	=45	=45	=45	=45	=45	=45	=45	=45	=45	=45	=45	=45	=45	=45	=45	=45	=45	=45	=45	=45	=45	=45	=45	=45	=45	=45	=45	=45	=45	=45	=45	=45	=45	=45	=45	=45	=45
4C\	4G</ 4c 4e	.	1ryy	.	.	1ryy	.	.	.	1ryy	.	.	1ryy	.	.	.	1ryy	.	.	1ryy	.	.	.	1ryy	.	.	.	1ryy	.	.	.	4.c\	-for-	-sza-	.	4.e\	-sza-	-for-	.
8EE\L	8G</L 8c 8e	.	.	.	.	.	.	.	.	.	.	.	.	.	.	.	.	.	.	.	.	.	.	.	.	.	.	.	.	.	.	.	.	.	.	.	.	.	.
8FF\J	8F</J 8A< 8d	.	.	.	.	.	.	.	.	.	.	.	.	.	.	.	.	.	.	.	.	.	.	.	.	.	.	.	.	.	.	8F\	-ti	-my,	.	8d\	-my,	-ti	.
4GG\	8E</L 8G< 8c	.	.	.	.	.	.	.	.	.	.	.	.	.	.	.	.	.	.	.	.	.	.	.	.	.	.	.	.	.	.	4G\	si	za-	.	4G\	za-	si	.
.	16r	.	.	.	.	.	.	.	.	.	.	.	.	.	.	.	.	.	.	.	.	.	.	.	.	.	.	.	.	.	.	.	.	.	.	.	.	.	.
.	16E</K 16G<	.	.	.	.	.	.	.	.	.	.	.	.	.	.	.	.	.	.	.	.	.	.	.	.	.	.	.	.	.	.	.	.	.	.	.	.	.	.
8GGG\L 8GG	8F</ 8A<	.	.	.	.	.	.	.	.	.	.	.	.	.	.	.	.	.	.	.	.	.	.	.	.	.	.	.	.	.	.	8F\L	con-	-kli	.	8A\L	-kli-	con-	.
8GGG\J 8GG	8D</J 8G< 8B<	.	.	.	.	.	.	.	.	.	.	.	.	.	.	.	.	.	.	.	.	.	.	.	.	.	.	.	.	.	.	8D\J	.	.	.	8B\J	.	.	.
!!LO:LB:g=original
=46	=46	=46	=46	=46	=46	=46	=46	=46	=46	=46	=46	=46	=46	=46	=46	=46	=46	=46	=46	=46	=46	=46	=46	=46	=46	=46	=46	=46	=46	=46	=46	=46	=46	=46	=46	=46	=46	=46	=46
!	!	!	!	!	!	!	!	!	!	!	!	!	!LO:TX:a:B:t=Chór 2gi	!	!	!	!	!	!	!	!	!	!	!	!	!	!	!LO:TX:a:B:t=Chór 1szy.	!	!	!	!LO:TX:a:B:t=Starzec.:note=podkreślone	!	!	!	!LO:TX:a:B:t=Guślarz.:note=podkreślone	!	!	!
8CC\ 8GG	8E</ 8c	.	1r	.	.	1r	.	.	.	1r	.	.	1r	.	.	.	4r	.	.	4r	.	.	.	4r	.	.	.	4r	.	.	.	4C/	-for-	na-	.	8c\	-na-	for-	.
8r	8r	.	.	.	.	.	.	.	.	.	.	.	.	.	.	.	.	.	.	.	.	.	.	.	.	.	.	.	.	.	.	.	.	.	.	8C/	-my,	-ti,	.
!	!	!LO:DY:rj:t=p.	!	!	!	!	!	!	!	!	!	!	!	!	!	!	!	!	!LO:DY:a:rj:t=p.	!	!	!	!LO:DY:a:rj:t=p.	!	!	!	!LO:DY:a:rj:t=p.	!	!	!	!LO:DY:a:rj:t=p.	!	!	!	!	!	!	!	!
8CC/L 8C	8e/L 8g 8cc	p	.	.	.	.	.	.	.	.	.	.	.	.	.	.	8E\	któ-	p	8c\	któ-	.	p	8g/	któ-	Chi	p	8cc\	któ-	.	p	4C/	-ti	-my.	.	8c\	któ-	Chi	.
8CC/J 8C	8e/J 8g 8cc	.	.	.	.	.	.	.	.	.	.	.	.	.	.	.	8E\	-ra	.	8c\	-ra	.	.	8g/	-ra	di	.	8cc\	-ra	.	.	.	.	.	.	8c\	-ra	di	.
8.CC/L 8.C	8e/L 8g 8cc	.	.	.	.	.	.	.	.	.	.	.	.	.	.	.	8E\	do-	.	8c\	do-	.	.	8g/	do-	voi	.	8cc\	do-	.	.	2r	.	.	.	8c\	do-	voi	.
.	8e/ 8g 8cc	.	.	.	.	.	.	.	.	.	.	.	.	.	.	.	8E\	-tąd	.	8c\	-tąd	.	.	8g/	-tąd	l'a-	.	8cc\	-tąd	.	.	.	.	.	.	8c\	-tąd	l'a-	.
16CC/K 16C	.	.	.	.	.	.	.	.	.	.	.	.	.	.	.	.	.	.	.	.	.	.	.	.	.	.	.	.	.	.	.	.	.	.	.	.	.	.	.
8BBB/ 8BB	8d/ 8g 8dd	.	.	.	.	.	.	.	.	.	.	.	.	.	.	.	8D\	czy-	.	8B\	czy-	.	.	8g/	czy-	-li il-	.	8dd\	czy-	.	.	.	.	.	.	8B\	czy-	-li il-	.
8AAA/J 8AA	8e/J 8g 8ee	.	.	.	.	.	.	.	.	.	.	.	.	.	.	.	8C\	-stém	.	8c\	-stém	.	.	8g/	-stém	-li-	.	8ee\	-stém	.	.	.	.	.	.	8A\	-stém	-li	.
=47	=47	=47	=47	=47	=47	=47	=47	=47	=47	=47	=47	=47	=47	=47	=47	=47	=47	=47	=47	=47	=47	=47	=47	=47	=47	=47	=47	=47	=47	=47	=47	=47	=47	=47	=47	=47	=47	=47	=47
8GGG/ 8GG	8f/ 8g 8b 8dd	.	4r	.	.	4r	.	.	.	4r	.	.	4r	.	.	.	(<4BB/	skrzy-	.	1d	skrzy-	.	.	(<2.g/	skrzy-	-ta-	.	1ff	skrzy-	.	.	4r	.	.	.	1G	skrzy-	ba-	.
8r	8r	.	.	.	.	.	.	.	.	.	.	.	.	.	.	.	.	.	.	.	.	.	.	.	.	.	.	.	.	.	.	.	.	.	.	.	.	.	.
!	!	!	!	!	!LO:DY:a:rj:t=pp.	!	!	!	!LO:DY:a:rj:t=pp.	!	!	!LO:DY:a:rj:t=pp.	!	!	!	!LO:DY:a:rj:t=pp.	!	!	!	!	!	!	!	!	!	!	!	!	!	!	!	!	!	!	!	!	!	!	!
8GG'>\L 8G	8b'>\L 8dd	.	8F\	za-	pp	8d\	za-	ven-	pp	8b\	za-	pp	8dd\	ven-	za-	pp	2.GG/)	.	.	.	.	.	.	.	.	.	.	.	.	.	.	8G\	któ-	chi	.	.	.	.	.
8GG'>\J 8G	8cc'>\J 8ee	.	8E\	-pra-	.	8c\	-pra-	-ga	.	8cc\	-pra-	.	8ee\	-ga	-pra-	.	.	.	.	.	.	.	.	.	.	.	.	.	.	.	.	8G\	-ra	di	.	.	.	.	.
4GG^^>\ 4G	4dd^^>\ 4ff	.	(>4D\	-sza-	.	(>4B\	-sza-	voi-	.	(>4dd\	-sza-	.	(>4ff\	ven-	-sza-	.	.	.	.	.	.	.	.	.	.	.	.	.	.	.	.	8G\	do-	voi	.	.	.	.	.
.	.	.	.	.	.	.	.	.	.	.	.	.	.	.	.	.	.	.	.	.	.	.	.	.	.	.	.	.	.	.	.	8G\	-tąd	l'a-	.	.	.	.	.
8GGG'</L 8GG	8f'</L 8a	.	8G\)	.	.	8c\)	.	.	.	8f/)	.	.	8a\)	.	.	.	.	.	.	.	.	.	.	8d/L	.	.	.	.	.	.	.	8G\	czy-	-li il-	.	.	.	.	.
8GGG'</J 8GG	8f'</J 8b	.	8F\	-my	.	8d\	-my	-ga a	.	8d/	-my	.	8b\	-ga a	-my	.	.	.	.	.	.	.	.	8g/J)	.	.	.	.	.	.	.	8G\	-stem	-li-	.	.	.	.	.
=48	=48	=48	=48	=48	=48	=48	=48	=48	=48	=48	=48	=48	=48	=48	=48	=48	=48	=48	=48	=48	=48	=48	=48	=48	=48	=48	=48	=48	=48	=48	=48	=48	=48	=48	=48	=48	=48	=48	=48
8CC'</ 8C	8e'</ 8cc	.	4E\	was,	.	4G/	was,	noi.	.	4e/	was,	.	4cc\	noi	was,	.	8C/	-dłem	.	8c\	-dłem	.	.	8g/	-dłem	-te	.	8ee\	-dłem	.	.	1G	skrzy	-ba	.	8G\	-dłem	-te	.
8r	8r	.	.	.	.	.	.	.	.	.	.	.	.	.	.	.	8r	.	.	8r	.	.	.	8r	.	.	.	8r	.	.	.	.	.	.	.	8r	.	.	.
!	!	!	!	!	!	!	!	!	!	!	!	!	!	!	!	!	!	!	!LO:DY:a:rj:t=p.	!	!	!	!LO:DY:a:rj:t=p.	!	!	!	!LO:DY:a:rj:t=p.	!	!	!	!LO:DY:a:rj:t=p.	!	!	!	!	!	!	!	!
8EE/L 8E	8c/L 8g 8cc	.	4r	.	.	4r	.	.	.	4r	.	.	4r	.	.	.	8G\	nie-	p	8e\	nie-	.	p	8g/	nie-	non	p	8cc\	nie-	.	p	.	.	.	.	8c\	nie-	nos	.
8EE/J 8E	8c/J 8g 8cc	.	.	.	.	.	.	.	.	.	.	.	.	.	.	.	8G\	-bie-	.	8e\	-bie-	.	.	8g/	-bie-	ho in	.	8cc\	-bie-	.	.	.	.	.	.	8c\	-bie-	ha in	.
8EE/L 8E	8c/L 8g 8cc	.	2r	.	.	2r	.	.	.	2r	.	.	2r	.	.	.	8G\	-skiej	.	8e\	-skiej	.	.	8g/	-skiej	cie-	.	8cc\	-skiej	.	.	.	.	.	.	8c\	-skiej	cie-	.
8EE/ 8E	8c/ 8g 8cc	.	.	.	.	.	.	.	.	.	.	.	.	.	.	.	8G\	nie	.	8e\	nie	.	.	8g/	nie	-lo an-	.	8cc\	nie	.	.	.	.	.	.	8c\	nie	-lo	.
8DD/ 8D	8d/ 8b 8dd	.	.	.	.	.	.	.	.	.	.	.	.	.	.	.	8F\	prze-	.	8d\	prze-	.	.	8g/	prze-	-cor	.	8dd\	prze-	.	.	.	.	.	.	8B\	przesz-	an-	.
!LO:TX:b:t=V&colon;S&colon;	!	!	!	!	!	!	!	!	!	!	!	!	!	!	!	!	!	!	!	!	!	!	!	!	!	!	!	!	!	!	!	!	!	!	!	!	!	!	!
8CC/J 8C	8e/J 8cc 8ee	.	.	.	.	.	.	.	.	.	.	.	.	.	.	.	8E\	-szła	.	8c\	-szła	.	.	8g/	-szła	re-	.	8ee\	-szła	.	.	.	.	.	.	8A\	-ła	-cor re-	.
!!LO:PB:g=original
=49	=49	=49	=49	=49	=49	=49	=49	=49	=49	=49	=49	=49	=49	=49	=49	=49	=49	=49	=49	=49	=49	=49	=49	=49	=49	=49	=49	=49	=49	=49	=49	=49	=49	=49	=49	=49	=49	=49	=49
8GGG/ 8GG	8f/ 8dd 8ff	.	4r	.	.	4r	.	.	.	4r	.	.	4r	.	.	.	(<4D/	bra-	.	1d	bra-	.	.	(<2.g/	bra-	.	.	1ff	bra-	ca-	.	8G\	te	dłem	.	1G	bra-	ca-	.
8r	8r	.	.	.	.	.	.	.	.	.	.	.	.	.	.	.	.	.	.	.	.	.	.	.	.	.	.	.	.	.	.	8r	.	.	.	.	.	.	.
!	!	!	!	!	!LO:DY:a:rj:t=pp.	!	!	!	!LO:DY:a:rj:t=pp.	!	!	!LO:DY:a:rj:t=pp.	!	!	!	!LO:DY:a:rj:t=pp.	!	!	!	!	!	!	!	!	!	!	!	!	!	!	!	!	!	!	!	!	!	!	!
8GG'>\L 8G	8b'>\L 8dd	.	8F'>\	za-	pp	8d'>\	za-	ven-	pp	8b'>\	za-	pp	8dd'>\	za-	ven-	pp	2.GG/)	.	.	.	.	.	.	.	.	.	.	.	.	.	.	8G\	non	nie-	.	.	.	.	.
8GG'>\J 8G	8cc'>\J 8ee	.	8E'>\	-kli-	.	8c'>\	-kli-	-ga	.	8cc'>\	-[kli-	.	8ee'>\	-kli-	-ga	.	.	.	.	.	.	.	.	.	.	.	.	.	.	.	.	8G\	ha in	-bie-	.	.	.	.	.
4GG^^>\ 4G	4dd^^>\ 4ff	.	(>4D\	-na-	.	(>4B\	-na-	ven-	.	(>4dd\	-na-	.	(>4ff\	-na-	ven-	.	.	.	.	.	.	.	.	.	.	.	.	.	.	.	.	8G\	cie-	-skiej	.	.	.	.	.
.	.	.	.	.	.	.	.	.	.	.	.	.	.	.	.	.	.	.	.	.	.	.	.	.	.	.	.	.	.	.	.	8G\	-lo an-	nie	.	.	.	.	.
8GGG'</L 8GG	8f'</L 8a	.	8G\)	.	.	8c\)	.	.	.	8f/)	.	.	8a/)	.	.	.	.	.	.	.	.	.	.	8d/L	.	.	.	.	.	.	.	8G\	-cor	prze-	.	.	.	.	.
8GGG'</J 8GG	8f'</J 8b	.	8F\	-[my	.	8d\	-[my	ga a	.	8d/	-my	.	8b/	-my	-ga a	.	.	.	.	.	.	.	.	8g/J)	.	.	.	.	.	.	.	8G\	re-	-szła	.	.	.	.	.
=50	=50	=50	=50	=50	=50	=50	=50	=50	=50	=50	=50	=50	=50	=50	=50	=50	=50	=50	=50	=50	=50	=50	=50	=50	=50	=50	=50	=50	=50	=50	=50	=50	=50	=50	=50	=50	=50	=50	=50
8CC/ 8C	8e/ 8cc	.	8E/	was	.	8G/	was	noi,	.	8e/	was	.	8cc\	was	noi,	.	8C/	-my,	.	8c\	-my,	.	.	8g/	-my,	.	.	8ee\	-my	-te	.	4C/	-ca-	bra-	.	8G\	-my,	-te,	.
8r	8r	.	8r	.	.	8r	.	.	.	8r	.	.	8r	.	.	.	8r	.	.	8r	.	.	.	8r	.	.	.	8r	.	.	.	.	.	.	.	8r	.	.	.
8C\L 8c	8e/L 8g 8cc	.	8C/	i	.	8c\	i	ven-	.	8cc\	i	.	8cc\	i	ven-	.	4r	.	.	4r	.	.	.	4r	.	.	.	4r	.	.	.	8C/	-te	-my,	.	4r	.	.	.
8C\J 8c	8e/J 8g 8cc	.	8C/	tém	.	8c\	tém	-ga a	.	8cc\	tém	.	8cc\	tém	-ga a	.	.	.	.	.	.	.	.	.	.	.	.	.	.	.	.	8r	.	.	.	.	.	.	.
!	!	!	!	!	!	!	!	!	!	!	!	!	!	!	!	!	!	!	!LO:HP:a	!	!	!	!LO:HP:a	!	!	!	!LO:HP:a	!	!	!	!LO:HP:a	!	!	!	!LO:HP:a	!	!	!	!LO:HP:a
4C\ 4c	4e^</ 4g 4cc	.	8.C^</	świa-	.	8.c^>\	świa-	noi	.	8.cc^>\	świa-	.	8.cc^>\	świa-	noi	.	4..G\	was	<	4..c\	was	.	<	4..e/	was	.	<	4..cc\	was	ven-	<	4..C/	.	was	<	4..c\	was	ven-	<
.	.	.	16C/	-tłem	.	16c\	-tłem	nel	.	16cc\	-tłem	.	16cc\	-tłem	nel	.	.	.	.	.	.	.	.	.	.	.	.	.	.	.	.	.	.	.	.	.	.	.	.
!	!LO:TX:b:t=molto cres_cen_do._:problem=dynamics with extention lines	!LO:HP:t=molto cres-cen-do._:ext=ud	!	!	!	!	!	!	!	!	!	!	!	!	!	!	!	!	!	!	!	!	!	!	!	!	!	!	!	!	!	!	!	!	!	!	!	!	!
8C\L 8c	8e/L 8g 8cc	<	8C/	i	.	8c\	i	di	.	8cc\	i	.	8cc\	i	di	.	.	.	.	.	.	.	.	.	.	.	.	.	.	.	.	.	.	.	.	.	.	.	.
8C\J 8c	8e/J 8g 8cc	.	8C/	ka-	.	8c\	ka-	dei	.	8cc\	ka-	.	8cc\	ka-	dei	.	.	.	.	.	.	.	.	.	.	.	.	.	.	.	.	.	.	.	.	.	.	.	.
.	.	.	.	.	.	.	.	.	.	.	.	.	.	.	.	.	16G\	[tém	.	16c\	[tém	.	.	16e/	[tém	.	.	16cc\	[tém	-ga a	.	16C/	.	tém	.	16c\	tém	-ga a	.
=51	=51	=51	=51	=51	=51	=51	=51	=51	=51	=51	=51	=51	=51	=51	=51	=51	=51	=51	=51	=51	=51	=51	=51	=51	=51	=51	=51	=51	=51	=51	=51	=51	=51	=51	=51	=51	=51	=51	=51
4C\ 4c	4f/ 4cc 4dd	.	8.C^</	-dzi-	.	8.c^>\	-dzi-	mor-	.	8.cc^>\	-dzi-	.	8.cc^>\	-dzi-	mor-	.	4..G\	świa-	.	4..d\	świa-	.	.	4..f/	świa-	.	.	4..dd\	świa-	noi	.	4..C/	.	świa-	.	4..c\	świa-	noi	.
.	.	.	16C/	-dłem,	.	16c\	-dłem,	-ti	.	16cc\	-dłem,	.	16cc\	-dłem,	-ti	.	.	.	.	.	.	.	.	.	.	.	.	.	.	.	.	.	.	.	.	.	.	.	.
!	!	!	!	!	!	!	!	!	!LO:DY:a	!	!	!LO:DY:a	!	!	!	!LO:DY:a	!	!	!	!	!	!	!	!	!	!	!	!	!	!	!	!	!	!	!	!	!	!	!
8C\L 8c	8f/L 8cc 8dd	.	8C/	za-	.	8c\	za-	si	<	8cc\	za-	<	8cc\	za-	si	<	.	.	.	.	.	.	.	.	.	.	.	.	.	.	.	.	.	.	.	.	.	.	.
8C\J 8c	8f/J 8cc 8dd	.	8C/	-pra-	.	8c\	-pra-	ri-	.	8cc\	-pra-	.	8cc\	-pra-	ris-	.	.	.	.	.	.	.	.	.	.	.	.	.	.	.	.	.	.	.	.	.	.	.	.
.	.	.	.	.	.	.	.	.	.	.	.	.	.	.	.	.	16G\	-tłem	.	16d\	-tłem	.	.	16f/	-tłem	.	.	16dd\	-tłem	nel	.	16C/	.	-tłem	.	16c\	-tłem	nel	.
4c\	4g/ 4cc 4ee	.	8.c\	-sza-	.	8.c\	-sza-	-sto-	.	8.cc\	-sza-	.	8.cc\	-sza-	-to-	.	4..c\	za-	.	4..e\	za-	.	.	4..g/	za-	.	.	4..ee\	za-	di	.	4..c\	.	za-	.	4..c\	za-	di	.
.	.	.	16B-X\	-my,	.	16B-X\	-my,	-ri e	.	16b-X\	-my,	.	16b-X\	-my,	-ri e	.	.	.	.	.	.	.	.	.	.	.	.	.	.	.	.	.	.	.	.	.	.	.	.
8c\L	8g/L 8cc 8ee	.	8A\	za-	.	8A\	za-	si	.	8a\	za-	.	8a\	za-	si	.	.	.	.	.	.	.	.	.	.	.	.	.	.	.	.	.	.	.	.	.	.	.	.
8c\J	8g/J 8cc 8ee	[[	8G\	-pra]-	.	8G\	-pra]-	con-	[[	8g\	-pra]-	[[	8g\	-pra-	con-	[[	.	.	.	.	.	.	.	.	.	.	.	.	.	.	.	.	.	.	.	.	.	.	.
.	.	.	.	.	.	.	.	.	.	.	.	.	.	.	.	.	16c\	-pra]-	[[	16e\	-pra]-	.	[[	16g/	-pra]-	.	[[	16ee\	-pra]-	dei	[[	16c\	.	-pra-	[[	16c\	-pra-	dei	[[
!!LO:PB:g=original
=52	=52	=52	=52	=52	=52	=52	=52	=52	=52	=52	=52	=52	=52	=52	=52	=52	=52	=52	=52	=52	=52	=52	=52	=52	=52	=52	=52	=52	=52	=52	=52	=52	=52	=52	=52	=52	=52	=52	=52
*	*	*	*2\right	*	*	*2\right	*	*	*	*	*	*	*2\right	*	*	*	*2\right	*	*	*2\right	*	*	*	*	*	*	*	*2\right	*	*	*	*2\right	*	*	*	*	*	*	*
!	!	!	!	!	!LO:HP:a	!	!	!	!	!	!	!	!	!	!	!LO:HP:a	!	!	!LO:HP:a	!	!	!	!LO:HP:a	!	!	!	!	!	!	!	!LO:HP:a	!	!	!	!LO:HP:a	!	!	!	!LO:HP:a
!	!	!LO:DY:rj:t=ff.	!	!	!LO:DY:a:rj:t=ff.	!	!	!	!LO:DY:a:rj:t=ff.	!	!	!LO:DY:a:rj:t=ff.	!	!	!	!LO:DY:a:rj:t=ff.	!	!	!LO:DY:a:rj:t=ff.	!	!	!	!LO:DY:a:rj:t=ff.	!	!	!	!	!	!	!	!LO:DY:a:rj:t=ff.	!	!	!	!LO:DY:a:rj:t=ff.	!	!	!	!LO:DY:a:rj
4FF/ 4F	4f/ 4a 4cc 4ff	ff	2F\	sza-	ff >	2F/	for-	sza-	ff >	2c/	sza-	ff >	2cc\	-for-	sza-	ff >	2F\	sza-	ff >	2f\	sza-	.	ff >	2a/	sza-	.	ff >	2ff\	-sza-	mor-	ff >	2A\	-sza-	.	ff >	[>2c\	-sza-	mor-	ff >
8F\L 8c	8a/L 8ff	.	.	.	.	.	.	.	.	.	.	.	.	.	.	.	.	.	.	.	.	.	.	.	.	.	.	.	.	.	.	.	.	.	.	.	.	.	.
8F\J 8c	8a/J 8ff	.	.	.	.	.	.	.	.	.	.	.	.	.	.	.	.	.	.	.	.	.	.	.	.	.	.	.	.	.	.	.	.	.	.	.	.	.	.
8.F\L 8.c	8.a/L 8.ff	.	8F\	-[my,	]	8c\	-ti,	-[my,	]	8c/	-[my,	]	8cc\	-ti,	-my,	]	8F\	-[my	]	8f\	-[my	.	]	8a/	-[my	.	]	8ff\	-[my	-ti	]	8F\	-my,	.	]	8c\]	-my,	-ti,	]
.	.	.	8r	.	.	8r	.	.	.	8r	.	.	8r	.	.	.	8r	.	.	8r	.	.	.	8r	.	.	.	8r	.	.	.	8r	.	.	.	8r	.	.	.
16F\K 16c	16a/K 16ff	.	.	.	.	.	.	.	.	.	.	.	.	.	.	.	.	.	.	.	.	.	.	.	.	.	.	.	.	.	.	.	.	.	.	.	.	.	.
8F\J 8c	8a/ 8ff	.	8F\	za-	.	8f\	si	za-	.	8f/	za-	.	8cc\	si	za-	.	8F\	za-	.	8f\	za-	.	.	8a/	za-	.	.	8ff\	za-	si	.	8F\	za-	.	.	8F\	za-	si	.
8FF/ 8F	8f/J 8a 8cc 8ff	.	8F\	-kli-	.	8f\	ri-	-kli-	.	8f/	-kli-	.	8cc\	ri-	-kli-	.	8F\	-kli-	.	8f\	-kli-	.	.	8a/	-kli-	.	.	8ff\	-kli-	ri-	.	8F\	-kli-	.	.	8F\	-kli-	ri-	.
=53	=53	=53	=53	=53	=53	=53	=53	=53	=53	=53	=53	=53	=53	=53	=53	=53	=53	=53	=53	=53	=53	=53	=53	=53	=53	=53	=53	=53	=53	=53	=53	=53	=53	=53	=53	=53	=53	=53	=53
!	!	!	!	!	!LO:HP:a	!	!	!	!LO:HP:a	!	!	!LO:HP:a	!	!	!	!LO:HP:a	!	!	!LO:HP:a	!	!	!	!LO:HP:a	!	!	!	!LO:HP:a	!	!	!	!LO:HP:a	!	!	!	!LO:HP:a	!	!	!	!LO:HP:a
!	!	!	!	!	!LO:DY:a:rj:t=sf.	!	!	!	!LO:DY:a:rj:t=sf.	!	!	!LO:DY:a:rj:t=sf	!	!	!	!LO:DY:a:rj:t=sf.	!	!	!LO:DY:a:rj:t=sf.	!	!	!	!LO:DY:a:rj:t=sf.	!	!	!	!LO:DY:a:rj:t=sf	!	!	!	!LO:DY:a:rj:t=sf.	!	!	!	!LO:DY:a:rj:t=sf.	!	!	!	!LO:DY:a:rj:t=sf.
8BB-X/	4f/ 4b-X 4dd 4ff	.	2F\	-na-	sf >	2d\	-sto-	-na-	sf >	2B-X/	-na-	sf >	2dd\	-sto-	-na-	sf >	2BB-X/	-na-	sf >	2f\	-na-	.	sf >	2b-X/	-na-	.	sf >	2ff\	-na-	-sto-	sf >	2D\	-na-	.	sf >	2d\	-na-	-sto-	sf >
8r	.	.	.	.	.	.	.	.	.	.	.	.	.	.	.	.	.	.	.	.	.	.	.	.	.	.	.	.	.	.	.	.	.	.	.	.	.	.	.
8B-y\L 8d	8f/L 8b- 8ff	.	.	.	.	.	.	.	.	.	.	.	.	.	.	.	.	.	.	.	.	.	.	.	.	.	.	.	.	.	.	.	.	.	.	.	.	.	.
8B-\J 8d	8f/J 8b- 8ff	.	.	.	.	.	.	.	.	.	.	.	.	.	.	.	.	.	.	.	.	.	.	.	.	.	.	.	.	.	.	.	.	.	.	.	.	.	.
8.G\L 8.d	8.f/L 8.bn 8.ff	.	8G\	-my,	]	8d\	-ri,	-my,	]	8g/	-my,	]	8dd\	-ri,	-my,	]	8GG/	-my,	]	8f\	-my,	.	]	8bn/	-my,	.	]	8ff\	-my,	-ri	]	8G\	-my,	.	]	8d\	-my,	-ri,	]
.	.	.	8r	.	.	8r	.	.	.	8r	.	.	8r	.	.	.	8r	.	.	8r	.	.	.	8r	.	.	.	8r	.	.	.	8r	.	.	.	8r	.	.	.
16G\K 16d	16f/K 16b 16ff	.	.	.	.	.	.	.	.	.	.	.	.	.	.	.	.	.	.	.	.	.	.	.	.	.	.	.	.	.	.	.	.	.	.	.	.	.	.
8G\J 8d	8f/ 8b 8ff	.	8G\	za-	.	8G/	si	za-	.	8g/	za-	.	8dd\	si	za-	.	8GG/	za-	.	8d\	za-	.	.	8b/	za-	.	.	8ff\	za-	si	.	8G\	za-	.	.	8G\	za-	si	.
8GGG/ 8GG	8f/J 8b 8ff	.	8G\	-pra-	.	8G/	ri-	-pra-	.	8g/	-pra-	.	8dd\	ri-	-pra-	.	8GG/	-pra-	.	8d\	-pra-	.	.	8b/	-pra-	.	.	8ff\	-pra-	ri-	.	8G\	-pra-	.	.	8G\	-pra-	ri-	.
=54	=54	=54	=54	=54	=54	=54	=54	=54	=54	=54	=54	=54	=54	=54	=54	=54	=54	=54	=54	=54	=54	=54	=54	=54	=54	=54	=54	=54	=54	=54	=54	=54	=54	=54	=54	=54	=54	=54	=54
4CC/ 4C	4e/ 4cc 4ee	.	4G\	-sza-	.	4c\	-sto-	-sza-	.	4g/	-sza-	.	4cc\	-sto-	-sza-	.	4C/	-sza-	.	4e\	-sza-	.	.	4cc/	-sza-	.	.	4ee\	-sza-	-sto-	.	4C/	-sza-	.	.	4c\	-sza-	-sto-	.
8FF/L 8F	8f/L 8a 8dd	.	4F\	-my,	.	4c\	-ri e	-my,	.	4a/	-my	.	4cc\	-ri e	-my,	.	4FF/	-my,	.	4f\	-my,	.	.	4a/	-my,	.	.	4dd\	-my,	-ri e	.	4A\	-my,	.	.	4d\	-my,	-ri e	.
8FF/J 8F	8d/J 8f 8a	.	.	.	.	.	.	.	.	.	.	.	.	.	.	.	.	.	.	.	.	.	.	.	.	.	.	.	.	.	.	.	.	.	.	.	.	.	.
4GG/ 4G	4e/ 4g 4cc	.	4E\	za-	.	4G/	si	za-	.	4e/	za-	.	4cc\	si	za-	.	4GG/	za-	.	4c\	za-	.	.	4g/	za-	.	.	4cc\	za-	si	.	4E\	za-	.	.	4e\	za-	si	.
8GG/L	8d/L 8g 8b	.	4D\	-kli-	.	4G/	con-	-kli-	.	4g/	-kli-	.	4g/	con-	-kli-	.	4GG/	-kli-	.	4d\	-kli-	.	.	4g/	-kli-	.	.	4b\	-kli-	con-	.	4G\	-kli-	.	.	4d\	-kli-	con-	.
8GG/J	8f/J 8g 8dd	.	.	.	.	.	.	.	.	.	.	.	.	.	.	.	.	.	.	.	.	.	.	.	.	.	.	.	.	.	.	.	.	.	.	.	.	.	.
=55	=55	=55	=55	=55	=55	=55	=55	=55	=55	=55	=55	=55	=55	=55	=55	=55	=55	=55	=55	=55	=55	=55	=55	=55	=55	=55	=55	=55	=55	=55	=55	=55	=55	=55	=55	=55	=55	=55	=55
!	!	!	!	!	!LO:DY:a:rj:t=fp.	!LO:S:color=gray	!	!	!LO:DY:a:rj:t=fp.	!	!	!LO:DY:a:rj	!LO:S:color=gray	!	!	!LO:DY:a:rj:t=fp.	!	!	!LO:DY:a:rj:t=fp.	!	!	!	!LO:DY:a:rj:t=fp.	!	!	!	!LO:DY:a:rj:t=fp.	!	!	!	!LO:DY:a:rj:t=fp.	!	!	!	!LO:DY:a:rj:t=fp.	!	!	!	!LO:DY:a:rj:t=fp.
8CC/ 8GG 8C	8e/ 8g 8cc	.	2C/	-na]-	fp	(>2c\	-for-	-na]-	fp	2c/	-na]-	fp	(>2c/	-for-	-na-	fp	2C/	-na]-	fp	2e\	-na]-	.	fp	(<2g/	-na]-	.	fp	(>2cc\	-na]-	-for-	fp	2C/	-na-	.	fp	(>2c\	-na-	-for-	fp
8r	8r	.	.	.	.	.	.	.	.	.	.	.	.	.	.	.	.	.	.	.	.	.	.	.	.	.	.	.	.	.	.	.	.	.	.	.	.	.	.
!	!	!LO:DY:rj:t=p.	!	!	!	!	!	!	!	!	!	!	!	!	!	!	!	!	!	!	!	!	!	!	!	!	!	!	!	!	!	!	!	!	!	!	!	!	!
8.G\L	8.g/L	p >	.	.	.	.	.	.	.	.	.	.	.	.	.	.	.	.	.	.	.	.	.	.	.	.	.	.	.	.	.	.	.	.	.	.	.	.	.
16G\Jk	16g/Jk	]	.	.	.	.	.	.	.	.	.	.	.	.	.	.	.	.	.	.	.	.	.	.	.	.	.	.	.	.	.	.	.	.	.	.	.	.	.
8c'>\L	8cc'</L	.	8C/	-my.	.	8C/)	-ti	-my.	.	8c/	-my.	.	8c/)	-ti	-my.	.	8C/	-my.	.	8e\	-my.	.	.	8g/)	-my.	.	.	8cc\)	-my.	-ti	.	8C/	-my.	.	.	8C/)	-my.	-ti	.
8d'>\	8dd'</	.	8r	.	.	8r	.	.	.	8r	.	.	8r	.	.	.	8r	.	.	8r	.	.	.	8r	.	.	.	8r	.	.	.	8r	.	.	.	8r	.	.	.
8e'>\	8ee'</	.	4r	.	.	4r	.	.	.	4r	.	.	4r	.	.	.	4r	.	.	4r	.	.	.	4r	.	.	.	4r	.	.	.	4r	.	.	.	4r	.	.	.
!LO:TX:b:t=V&colon;S&colon;	!	!	!	!	!	!	!	!	!	!	!	!	!	!	!	!	!	!	!	!	!	!	!	!	!	!	!	!	!	!	!	!	!	!	!	!	!	!	!
8f'>\J	8ff'</J	.	.	.	.	.	.	.	.	.	.	.	.	.	.	.	.	.	.	.	.	.	.	.	.	.	.	.	.	.	.	.	.	.	.	.	.	.	.
!!LO:PB:g=original
=56	=56	=56	=56	=56	=56	=56	=56	=56	=56	=56	=56	=56	=56	=56	=56	=56	=56	=56	=56	=56	=56	=56	=56	=56	=56	=56	=56	=56	=56	=56	=56	=56	=56	=56	=56	=56	=56	=56	=56
[>1g^<	[>1gg^<	.	4r	.	.	4r	.	.	.	4r	.	.	4r	.	.	.	4r	.	.	4r	.	.	.	4r	.	.	.	4r	.	.	.	4r	.	.	.	4r	.	.	.
!	!	!	!	!	!LO:DY:a:rj:t=p.	!	!	!	!LO:DY:a:rj:t=p.	!	!	!LO:DY:a:rj:t=p.	!	!	!	!LO:DY:a:rj:t=p.	!	!	!LO:DY:a:rj:t=p.	!	!	!	!LO:DY:a:rj:t=p.	!	!	!	!LO:DY:a:rj:t=p.	!	!	!	!LO:DY:a:rj:t=p.	!	!	!	!LO:DY:a:rj:t=p.	!	!	!	!LO:DY:a:rj:t=p.
.	.	.	8E\	za-	p	8G/	za-	.	p	8c/	za-	p	8g/	za-	ven-	p	8E\	za-	p	8c\	ven-	za-	p	8g/	za-	.	p	8g/	za-	.	p	8G\	za-	.	p	8G\	ven-	za-	p
.	.	.	8E\	-[pra-	.	8G/	-[pra-	.	.	8c/	-[pra-	.	8g/	-pra-	-ga a	.	8E\	-[pra-	.	8c\	-ga a	-[pra-	.	8g/	-[pra-	.	.	8g/	-[pra-	.	.	8G\	-[pra-	.	.	8G\	-ga a	-pra-	.
.	.	.	2D\	-sza-	.	(<4A/	-sza-	.	.	(<4c/	-sza-	.	2g/	-sza-	no-	.	(>4D\	-sza-	.	(>4c\	no-	-sza-	.	2f/	-sza-	.	.	2g/	-sza-	.	.	2G\	-sza-	.	.	2G\	no-	-sza-	.
.	.	.	.	.	.	4G/)	.	.	.	4d/)	.	.	.	.	.	.	4GG/)	-my,	.	4B\)	.	.	.	.	.	.	.	.	.	.	.	.	.	.	.	.	.	.	.
=57	=57	=57	=57	=57	=57	=57	=57	=57	=57	=57	=57	=57	=57	=57	=57	=57	=57	=57	=57	=57	=57	=57	=57	=57	=57	=57	=57	=57	=57	=57	=57	=57	=57	=57	=57	=57	=57	=57	=57
8g\]	8gg\]	.	4C\	-my,	.	4G/	-my,	.	.	4e/	-my,	.	4g/	-my,	-i	.	4C/	.	.	4c\	-i	-my,	.	4e/	-my,	.	.	4g/	-my,	.	.	4G\	-my,	.	.	4G\	-i	-my,	.
8r	8r	.	.	.	.	.	.	.	.	.	.	.	.	.	.	.	.	.	.	.	.	.	.	.	.	.	.	.	.	.	.	.	.	.	.	.	.	.	.
8.G\L	8.g\L	.	4r	.	.	4r	.	.	.	4r	.	.	4r	.	.	.	4r	.	.	4r	.	.	.	4r	.	.	.	4r	.	.	.	4r	.	.	.	4r	.	.	.
16c\Jk	16cc\Jk	.	.	.	.	.	.	.	.	.	.	.	.	.	.	.	.	.	.	.	.	.	.	.	.	.	.	.	.	.	.	.	.	.	.	.	.	.	.
(>8c\L	(>8cc\L	.	2r	.	.	2r	.	.	.	2r	.	.	2r	.	.	.	2r	.	.	2r	.	.	.	2r	.	.	.	2r	.	.	.	2r	.	.	.	2r	.	.	.
8e\)	8ee\)	.	.	.	.	.	.	.	.	.	.	.	.	.	.	.	.	.	.	.	.	.	.	.	.	.	.	.	.	.	.	.	.	.	.	.	.	.	.
8e'>\	8ee'>\	.	.	.	.	.	.	.	.	.	.	.	.	.	.	.	.	.	.	.	.	.	.	.	.	.	.	.	.	.	.	.	.	.	.	.	.	.	.
8f'>\J	8ff'>\J	.	.	.	.	.	.	.	.	.	.	.	.	.	.	.	.	.	.	.	.	.	.	.	.	.	.	.	.	.	.	.	.	.	.	.	.	.	.
=58	=58	=58	=58	=58	=58	=58	=58	=58	=58	=58	=58	=58	=58	=58	=58	=58	=58	=58	=58	=58	=58	=58	=58	=58	=58	=58	=58	=58	=58	=58	=58	=58	=58	=58	=58	=58	=58	=58	=58
[>1g^<	[>1gg^<	.	4r	.	.	4r	.	.	.	4r	.	.	4r	.	.	.	4r	.	.	4r	.	.	.	4r	.	.	.	4r	.	.	.	4r	.	.	.	4r	.	.	.
!	!	!	!	!	!LO:DY:a:rj:t=pp.	!	!	!	!LO:DY:a:rj:t=pp.	!	!	!LO:DY:a:rj:t=pp.	!	!	!	!LO:DY:a:rj:t=pp.	!	!	!LO:DY:a:rj:t=pp.	!	!	!	!LO:DY:a:rj:t=pp.	!	!	!	!LO:DY:a:rj:t=pp.	!	!	!	!LO:DY:a:rj:t=pp.	!	!	!	!LO:DY:a:rj:t=pp.	!	!	!	!LO:DY:a:rj:t=pp.
.	.	.	8E\	za-	pp	8G/	za-	.	pp	8c/	za-	pp	8g/	za-	ven-	pp	8E\	za-	pp	8c\	ven-	za-	pp	8g/	za-	.	pp	8g/	za-	.	pp	8G\	za-	.	pp	8G\	ven-	za-	pp
.	.	.	8E\	-kli-	.	8G/	-kli-	.	.	8c/	-kli-	.	8g/	-kli-	-ga a	.	8E\	-kli-	.	8c\	-ga a	-kli-	.	8g/	-kli-	.	.	8g/	-kli-	.	.	8G\	-kli-	.	.	8G\	-ga a	-kli-	.
.	.	.	2D\	-na-	.	(<4A/	-na-	.	.	(<4c/	-na-	.	2g/	-na-	no-	.	4D\	-na-	.	(>4c\	no-	-na-	.	2f/	-na-	.	.	2g/	-na-	.	.	2G\	-na-	.	.	2G\	no-	-na-	.
.	.	.	.	.	.	4G/)	.	.	.	4d/)	.	.	.	.	.	.	4GG/	-my,	.	4B\)	.	.	.	.	.	.	.	.	.	.	.	.	.	.	.	.	.	.	.
=59	=59	=59	=59	=59	=59	=59	=59	=59	=59	=59	=59	=59	=59	=59	=59	=59	=59	=59	=59	=59	=59	=59	=59	=59	=59	=59	=59	=59	=59	=59	=59	=59	=59	=59	=59	=59	=59	=59	=59
8g\]	8gg\]	.	4C\	-my,	.	4G/	-my,	.	.	4e/	-my,	.	4g/	-my,	-i,	.	4C/	.	.	4c\	-i	-my,	.	4e/	-my,	.	.	4g/	-my,	.	.	4G\	-my,	.	.	4G\	-i,	-my,	.
8r	8r	.	.	.	.	.	.	.	.	.	.	.	.	.	.	.	.	.	.	.	.	.	.	.	.	.	.	.	.	.	.	.	.	.	.	.	.	.	.
8.G\L	8.g\L	.	4r	.	.	4r	.	.	.	4r	.	.	4r	.	.	.	4r	.	.	4r	.	.	.	4r	.	.	.	4r	.	.	.	4r	.	.	.	4r	.	.	.
16G\Jk	16g\Jk	.	.	.	.	.	.	.	.	.	.	.	.	.	.	.	.	.	.	.	.	.	.	.	.	.	.	.	.	.	.	.	.	.	.	.	.	.	.
(>8c\L	(>8cc\L	.	2r	.	.	2r	.	.	.	2r	.	.	2r	.	.	.	2r	.	.	2r	.	.	.	2r	.	.	.	2r	.	.	.	2r	.	.	.	2r	.	.	.
8d\)	8dd\)	.	.	.	.	.	.	.	.	.	.	.	.	.	.	.	.	.	.	.	.	.	.	.	.	.	.	.	.	.	.	.	.	.	.	.	.	.	.
8e'>\	8ee'>\	.	.	.	.	.	.	.	.	.	.	.	.	.	.	.	.	.	.	.	.	.	.	.	.	.	.	.	.	.	.	.	.	.	.	.	.	.	.
8c'>\J	8cc'>\J	.	.	.	.	.	.	.	.	.	.	.	.	.	.	.	.	.	.	.	.	.	.	.	.	.	.	.	.	.	.	.	.	.	.	.	.	.	.
=60	=60	=60	=60	=60	=60	=60	=60	=60	=60	=60	=60	=60	=60	=60	=60	=60	=60	=60	=60	=60	=60	=60	=60	=60	=60	=60	=60	=60	=60	=60	=60	=60	=60	=60	=60	=60	=60	=60	=60
(>1G^>	(>1g^>	.	4r	.	.	4r	.	.	.	4r	.	.	4r	.	.	.	4r	.	.	4r	.	.	.	4r	.	.	.	4r	.	.	.	4r	.	.	.	4r	.	.	.
!	!	!	!	!	!LO:DY:a:rj:t=ppp.	!	!	!	!LO:DY:a:rj:t=ppp.	!	!	!LO:DY:a:rj:t=ppp.	!	!	!	!LO:DY:a:rj:t=ppp.	!	!	!LO:DY:a:rj:t=ppp.	!	!	!	!LO:DY:a:rj:t=ppp.	!	!	!	!LO:DY:a:rj:t=ppp.	!	!	!	!LO:DY:a:rj:t=ppp.	!	!	!	!LO:DY:a:rj:t=ppp.	!	!	!	!LO:DY:a:rj:t=ppp.
.	.	.	8E\	za-	ppp	8G/	za-	.	ppp	8c/	za-	ppp	8g/	za-	si	ppp	8E\	za-	ppp	8c\	si	za-	ppp	8g/	za-	.	ppp	8g/	za-	.	ppp	8G\	za-	.	ppp	8G\	si	za-	ppp
.	.	.	8E\	-pra-	.	8G/	-pra-	.	.	8c/	-pra-	.	8g/	-pra-	ri-	.	8E\	-pra-	.	8c\	ri-	-pra-	.	8g/	-pra-	.	.	8g/	-pra-	.	.	8G\	-pra-	.	.	8G\	ris-	-pra-	.
.	.	.	2D\	-sza]-	.	(<4A/	-sza]-	.	.	(<4c/	-sza]-	.	2g/	-sza-	-sto-	.	(>4D\	-sza]-	.	(>4c\	-sto-	-sza]-	.	2f/	-sza]-	.	.	2g/	-sza]-	.	.	2G\	-sza]-	.	.	2G\	-to	-sza-	.
.	.	.	.	.	.	4G/)	.	.	.	4d/)	.	.	.	.	.	.	4GG/)	.	.	4B\)	.	.	.	.	.	.	.	.	.	.	.	.	.	.	.	.	.	.	.
!!LO:PB:g=original
=61	=61	=61	=61	=61	=61	=61	=61	=61	=61	=61	=61	=61	=61	=61	=61	=61	=61	=61	=61	=61	=61	=61	=61	=61	=61	=61	=61	=61	=61	=61	=61	=61	=61	=61	=61	=61	=61	=61	=61
!	!LO:TX:t=P:problem=łuk kończy się od dołu, zaczyna od góry	!	!	!	!	!	!	!	!	!	!	!	!	!	!	!	!	!	!	!	!	!	!	!	!	!	!	!	!	!	!	!	!	!	!	!	!	!	!
8G\)	8g/)	.	4C/	-[my,	.	4G/	-[my,	.	.	4e/	-[my,	.	4g/	-my,	-ri,	.	4C/	-[my,	.	4c\	-ri,	-[my,	.	4g/	-[my,	.	.	4g/	-[my,	.	.	4G\	-[my,	.	.	4G\	ri	-my,	.
8r	8r	.	.	.	.	.	.	.	.	.	.	.	.	.	.	.	.	.	.	.	.	.	.	.	.	.	.	.	.	.	.	.	.	.	.	.	.	.	.
!	!	!	!	!	!	!LO:TX:a:t=rallent._	!	!	!	!	!	!	!LO:TX:a:t=rallent_	!	!	!	!	!	!	!LO:TX:a:t=rallent.	!	!	!	!	!	!	!	!LO:TX:a:t=rallent.	!	!	!	!	!	!	!	!LO:TX:a:t=rallent.	!	!	!
8.G\L	8.g/L	.	4r	.	.	4r	.	.	.	4r	.	.	4r	.	.	.	4r	.	.	4r	.	.	.	4r	.	.	.	4r	.	.	.	4r	.	.	.	4r	.	.	.
16G\Jk	16g/Jk	.	.	.	.	.	.	.	.	.	.	.	.	.	.	.	.	.	.	.	.	.	.	.	.	.	.	.	.	.	.	.	.	.	.	.	.	.	.
8.c\L	8.cc/L	.	2r	.	.	2r	.	.	.	2r	.	.	2r	.	.	.	2r	.	.	2r	.	.	.	2r	.	.	.	2r	.	.	.	2r	.	.	.	2r	.	.	.
16B\K	16b/K	.	.	.	.	.	.	.	.	.	.	.	.	.	.	.	.	.	.	.	.	.	.	.	.	.	.	.	.	.	.	.	.	.	.	.	.	.	.
8c\	8cc/	.	.	.	.	.	.	.	.	.	.	.	.	.	.	.	.	.	.	.	.	.	.	.	.	.	.	.	.	.	.	.	.	.	.	.	.	.	.
8A\J	8a/J	.	.	.	.	.	.	.	.	.	.	.	.	.	.	.	.	.	.	.	.	.	.	.	.	.	.	.	.	.	.	.	.	.	.	.	.	.	.
=62	=62	=62	=62	=62	=62	=62	=62	=62	=62	=62	=62	=62	=62	=62	=62	=62	=62	=62	=62	=62	=62	=62	=62	=62	=62	=62	=62	=62	=62	=62	=62	=62	=62	=62	=62	=62	=62	=62	=62
2G^>\	4g/	.	2r	.	.	2r	.	.	.	2r	.	.	2r	.	.	.	2r	.	.	2r	.	.	.	2r	.	.	.	2r	.	.	.	2r	.	.	.	2r	.	.	.
.	4r	.	.	.	.	.	.	.	.	.	.	.	.	.	.	.	.	.	.	.	.	.	.	.	.	.	.	.	.	.	.	.	.	.	.	.	.	.	.
!	!	!LO:DY:rj:t=f.	!	!	!LO:DY:a:rj:t=f.	!LO:TX:a:t=à tempo 1mo.:rj	!	!	!LO:DY:a:rj:t=f.	!	!	!LO:DY:a:rj:t=f.	!LO:TX:a:t=à tempo 1mo.:rj	!	!	!LO:DY:a:rj:t=f.	!	!	!LO:DY:a:rj:t=f.	!LO:TX:a:t=à tempo 1mo.:rj	!	!	!LO:DY:a:rj:t=f.	!	!	!	!LO:DY:a:rj:t=f.	!LO:TX:a:t=tempo 1mo.:rj	!	!	!LO:DY:a:rj:t=f.	!	!	!	!LO:DY:a:rj:t=f.	!LO:TX:a:t=à tempo 1mo.:rj	!	!	!LO:DY:a:rj:t=f.
4EE'</ 4C 4E	4e'>\ 4g 4cc 4ee	f	4E\	za-	f	4c\	za-	.	f	4e/	za-	f	4cc\	za-	si	f	4G\	za-	f	4e\	si	za-	f	4g/	za-	.	f	4ee\	za-	.	f	4c\	za-	.	f	4c\	si	za-	f
4EE'</ 4C 4E	4e'>\ 4g 4cc 4ee	.	4E\	-kli-	.	4c\	-kli-	.	.	4e/	-kli-	.	4cc\	-kli-	con-	.	4G\	-kli-	.	4e\	con-	-kli-	.	4g/	-kli-	.	.	4ee\	-kli-	.	.	4c\	-kli-	.	.	4c\	con-	-kli-	.
=63	=63	=63	=63	=63	=63	=63	=63	=63	=63	=63	=63	=63	=63	=63	=63	=63	=63	=63	=63	=63	=63	=63	=63	=63	=63	=63	=63	=63	=63	=63	=63	=63	=63	=63	=63	=63	=63	=63	=63
*^	*	*	*	*	*	*	*	*	*	*	*	*	*	*	*	*	*	*	*	*	*	*	*	*	*	*	*	*	*	*	*	*	*	*	*	*	*	*	*
(>2D/ 2F	2FF\	(<2d/ 2a (>2dd	.	(>2F\	-na]-	.	1d	-na]-	.	.	1d	-na]-	.	(>2cc\	-na-	-for-	.	(>2A\	-na]-	.	1f	-for-	-na]-	.	(<2a/	-na]-	.	.	1dd	-na]-	.	.	(>2c\	-na]-	.	.	(>2c\	-for-	-na-	.
2G/) 2GG	2GG\	2d/) 2f 2b 2dd)	.	2G\)	.	.	.	.	.	.	.	.	.	2b\)	.	.	.	2G\)	.	.	.	.	.	.	2g/)	.	.	.	.	.	.	.	2G\)	.	.	.	2G\)	.	.	.
*v	*v	*	*	*	*	*	*	*	*	*	*	*	*	*	*	*	*	*	*	*	*	*	*	*	*	*	*	*	*	*	*	*	*	*	*	*	*	*	*	*
=64	=64	=64	=64	=64	=64	=64	=64	=64	=64	=64	=64	=64	=64	=64	=64	=64	=64	=64	=64	=64	=64	=64	=64	=64	=64	=64	=64	=64	=64	=64	=64	=64	=64	=64	=64	=64	=64	=64	=64
!	!	!	!	!	!LO:DY:a	!	!	!	!LO:DY:a	!	!	!LO:H{:a	!	!	!	!LO:HP:a	!	!	!LO:HP:a	!	!	!	!LO:HP:a	!	!	!	!LO:HP:a	!	!	!	!	!	!	!	!LO:HP:a	!	!	!	!LO:HP:a
4CC/ 4C	4e/ 4cc	>	[<1C	-my.	>	[>1c	-my.	.	>	[>1e	-my.	>	[>1cc	-my.	-ti	>	[1C	-my.	>	[>1e	-ti	-my.	>	[<1g	-my.	.	>	[>1cc	-my.	.	.	[>1G	-my.	.	>	[>1G	-ti	-my.	>
8CC/L 8GG	8e/L 8cc	.	.	.	.	.	.	.	.	.	.	.	.	.	.	.	.	.	.	.	.	.	.	.	.	.	.	.	.	.	.	.	.	.	.	.	.	.	.
8CC/J 8GG	8e/J 8cc	.	.	.	.	.	.	.	.	.	.	.	.	.	.	.	.	.	.	.	.	.	.	.	.	.	.	.	.	.	.	.	.	.	.	.	.	.	.
8.CC/L 8.GG	8.e/L 8.cc	.	.	.	.	.	.	.	.	.	.	.	.	.	.	.	.	.	.	.	.	.	.	.	.	.	.	.	.	.	.	.	.	.	.	.	.	.	.
16CC/K 16GG	16e/K 16g	.	.	.	.	.	.	.	.	.	.	.	.	.	.	.	.	.	.	.	.	.	.	.	.	.	.	.	.	.	.	.	.	.	.	.	.	.	.
8CC/ 8GG	8e/ 8g	.	.	.	.	.	.	.	.	.	.	.	.	.	.	.	.	.	.	.	.	.	.	.	.	.	.	.	.	.	.	.	.	.	.	.	.	.	.
8CC/J 8GG	8e/J 8g	.	.	.	.	.	.	.	.	.	.	.	.	.	.	.	.	.	.	.	.	.	.	.	.	.	.	.	.	.	.	.	.	.	.	.	.	.	.
=65	=65	=65	=65	=65	=65	=65	=65	=65	=65	=65	=65	=65	=65	=65	=65	=65	=65	=65	=65	=65	=65	=65	=65	=65	=65	=65	=65	=65	=65	=65	=65	=65	=65	=65	=65	=65	=65	=65	=65
8.CC/L 8.GG	8.e/L 8.g	.	1C_<	.	.	1c_>	.	.	.	1e_>	.	.	1cc_>	.	.	.	1C_	.	.	1e_>	.	.	.	1g_<	.	.	.	1cc_>	.	.	.	1G_>	.	.	.	1G_>	.	.	.
16CC/K 16GG	16c/K 16e	.	.	.	.	.	.	.	.	.	.	.	.	.	.	.	.	.	.	.	.	.	.	.	.	.	.	.	.	.	.	.	.	.	.	.	.	.	.
8CC/ 8GG	8c/ 8e	.	.	.	.	.	.	.	.	.	.	.	.	.	.	.	.	.	.	.	.	.	.	.	.	.	.	.	.	.	.	.	.	.	.	.	.	.	.
8CC/J 8GG	8c/J 8e	.	.	.	.	.	.	.	.	.	.	.	.	.	.	.	.	.	.	.	.	.	.	.	.	.	.	.	.	.	.	.	.	.	.	.	.	.	.
8.CC/L 8.GG	8.c/L 8.e	.	.	.	.	.	.	.	.	.	.	.	.	.	.	.	.	.	.	.	.	.	.	.	.	.	.	.	.	.	.	.	.	.	.	.	.	.	.
16CC/K 16C	16c/K	.	.	.	.	.	.	.	.	.	.	.	.	.	.	.	.	.	.	.	.	.	.	.	.	.	.	.	.	.	.	.	.	.	.	.	.	.	.
8CC/ 8C	8c/	.	.	.	.	.	.	.	.	.	.	.	.	.	.	.	.	.	.	.	.	.	.	.	.	.	.	.	.	.	.	.	.	.	.	.	.	.	.
8CC/J 8C	8c/J	]]	.	.	.	.	.	.	.	.	.	.	.	.	.	.	.	.	.	.	.	.	.	.	.	.	.	.	.	.	.	.	.	.	.	.	.	.	.
=66	=66	=66	=66	=66	=66	=66	=66	=66	=66	=66	=66	=66	=66	=66	=66	=66	=66	=66	=66	=66	=66	=66	=66	=66	=66	=66	=66	=66	=66	=66	=66	=66	=66	=66	=66	=66	=66	=66	=66
!	!LO:TX:t=P:problem=fermaty nad i pod końcową linią	!	!	!	!	!	!	!	!	!	!	!	!	!	!	!	!	!	!	!	!	!	!	!	!	!	!	!	!	!	!	!	!	!	!	!	!	!	!
1CC;> 1C	1c;>	.	4C/]	.	.	4c\]	.	.	.	4e/]	.	.	4cc\]	.	.	.	4C/]	.	.	4e\]	.	.	.	4g/]	.	.	.	4cc\]	.	.	.	4G\]	.	.	.	4G\]	.	.	.
.	.	.	4r	.	]	4r	.	.	]	4r	.	]	4r	.	.	]	4r	.	]	4r	.	.	]	4r	.	.	]	4r	.	.	.	4r	.	.	]	4r	.	.	]
.	.	.	2r;>	.	.	2r;>	.	.	.	2r;>	.	.	2r;>	.	.	.	2r;>	.	.	2r;>	.	.	.	2r;>	.	.	.	2r;>	.	.	.	2r;>	.	.	.	2r;>	.	.	.
==	==	==	==	==	==	==	==	==	==	==	==	==	==	==	==	==	==	==	==	==	==	==	==	==	==	==	==	==	==	==	==	==	==	==	==	==	==	==	==
*-	*-	*-	*-	*-	*-	*-	*-	*-	*-	*-	*-	*-	*-	*-	*-	*-	*-	*-	*-	*-	*-	*-	*-	*-	*-	*-	*-	*-	*-	*-	*-	*-	*-	*-	*-	*-	*-	*-	*-
!!!system-decoration: [(g1)][(g2)][(g3)][(g4)]
!!!RDF**kern: > = above
!!!RDF**kern: < = below
!!!RDF**kern: @ = marked note, color=red
!!!RDF**kern: j = marked note, color=blue
!!!ENC: Andrzej Gręziak
!!!END: 2021-10-01
!!!EED: Jędrzej Mróz
!!!ESR: 2021-10-13
!!!YEC: Copyright 2022 Narodowy Instytut Fryderyka Chopina (https://polishscores.org)
!!!YEM: License CC-BY-4.0 (https://creativecommons.org/licenses/by/4.0)
